(VECTRIC POST REVISION)
(2410E23C85915A17A0D6BB4BFA509A68)
T1
G17
G21
G90
G0Z20.320
G0X0.000Y0.000
S18000M3
G0X-146.400Y-0.400
G0Z5.080
G1Z-1.500F400.0
G1X146.400F1200.0
G1Y0.400
G1X-146.400
G1Y-0.400
G1X-148.800Y-2.800
G1X148.800
G1Y2.800
G1X-148.800
G1Y-2.800
G1X-151.200Y-5.200
G1X151.200
G1Y5.200
G1X-151.200
G1Y-5.200
G1X-153.600Y-7.600
G1X153.600
G1Y7.600
G1X-153.600
G1Y-7.600
G1X-156.000Y-10.000
G1X156.000
G1Y10.000
G1X-156.000
G1Y-10.000
G1X-158.400Y-12.400
G1X158.400
G1Y12.400
G1X-158.400
G1Y-12.400
G1X-160.800Y-14.800
G1X160.800
G1Y14.800
G1X-160.800
G1Y-14.800
G1X-163.200Y-17.200
G1X163.200
G1Y17.200
G1X-163.200
G1Y-17.200
G1X-165.600Y-19.600
G1X165.600
G1Y19.600
G1X-165.600
G1Y-19.600
G1X-168.000Y-22.000
G1X168.000
G1Y22.000
G1X-168.000
G1Y-22.000
G1X-170.400Y-24.400
G1X170.400
G1Y24.400
G1X-170.400
G1Y-24.400
G1X-172.800Y-26.800
G1X172.800
G1Y26.800
G1X-172.800
G1Y-26.800
G1X-175.200Y-29.200
G1X175.200
G1Y29.200
G1X-175.200
G1Y-29.200
G1X-177.600Y-31.600
G1X177.600
G1Y31.600
G1X-177.600
G1Y-31.600
G1X-180.000Y-34.000
G1X180.000
G1Y34.000
G1X-180.000
G1Y-34.000
G1X-182.400Y-36.400
G1X182.400
G1Y36.400
G1X-182.400
G1Y-36.400
G1X-184.800Y-38.800
G1X184.800
G1Y38.800
G1X-184.800
G1Y-38.800
G1X-187.200Y-41.200
G1X187.200
G1Y41.200
G1X-187.200
G1Y-41.200
G1X-189.600Y-43.600
G1X189.600
G1Y43.600
G1X-189.600
G1Y-43.600
G1X-192.000Y-46.000
G1X192.000
G1Y46.000
G1X-192.000
G1Y-46.000
G1X-189.600Y-43.600
G1X-187.200Y-41.200
G1X-184.800Y-38.800
G1X-182.400Y-36.400
G1X-180.000Y-34.000
G1X-177.600Y-31.600
G1X-175.200Y-29.200
G1X-172.800Y-26.800
G1X-170.400Y-24.400
G1X-168.000Y-22.000
G1X-165.600Y-19.600
G1X-163.200Y-17.200
G1X-160.800Y-14.800
G1X-158.400Y-12.400
G1X-156.000Y-10.000
G1X-153.600Y-7.600
G1X-151.200Y-5.200
G1X-148.800Y-2.800
G1X-146.400Y-0.400
G1Z-3.000F400.0
G1X146.400F1200.0
G1Y0.400
G1X-146.400
G1Y-0.400
G1X-148.800Y-2.800
G1X148.800
G1Y2.800
G1X-148.800
G1Y-2.800
G1X-151.200Y-5.200
G1X151.200
G1Y5.200
G1X-151.200
G1Y-5.200
G1X-153.600Y-7.600
G1X153.600
G1Y7.600
G1X-153.600
G1Y-7.600
G1X-156.000Y-10.000
G1X156.000
G1Y10.000
G1X-156.000
G1Y-10.000
G1X-158.400Y-12.400
G1X158.400
G1Y12.400
G1X-158.400
G1Y-12.400
G1X-160.800Y-14.800
G1X160.800
G1Y14.800
G1X-160.800
G1Y-14.800
G1X-163.200Y-17.200
G1X163.200
G1Y17.200
G1X-163.200
G1Y-17.200
G1X-165.600Y-19.600
G1X165.600
G1Y19.600
G1X-165.600
G1Y-19.600
G1X-168.000Y-22.000
G1X168.000
G1Y22.000
G1X-168.000
G1Y-22.000
G1X-170.400Y-24.400
G1X170.400
G1Y24.400
G1X-170.400
G1Y-24.400
G1X-172.800Y-26.800
G1X172.800
G1Y26.800
G1X-172.800
G1Y-26.800
G1X-175.200Y-29.200
G1X175.200
G1Y29.200
G1X-175.200
G1Y-29.200
G1X-177.600Y-31.600
G1X177.600
G1Y31.600
G1X-177.600
G1Y-31.600
G1X-180.000Y-34.000
G1X180.000
G1Y34.000
G1X-180.000
G1Y-34.000
G1X-182.400Y-36.400
G1X182.400
G1Y36.400
G1X-182.400
G1Y-36.400
G1X-184.800Y-38.800
G1X184.800
G1Y38.800
G1X-184.800
G1Y-38.800
G1X-187.200Y-41.200
G1X187.200
G1Y41.200
G1X-187.200
G1Y-41.200
G1X-189.600Y-43.600
G1X189.600
G1Y43.600
G1X-189.600
G1Y-43.600
G1X-192.000Y-46.000
G1X192.000
G1Y46.000
G1X-192.000
G1Y-46.000
G0Z5.080
G0X-169.600Y16.830Z5.080
G1Z-5.050F400.0
G3X-169.000Y16.230I0.600J0.000F1200.0
G1X-154.000
G3X-153.400Y16.830I0.000J0.600
G3X-154.000Y17.430I-0.600J0.000
G1X-169.000
G3X-169.600Y16.830I0.000J-0.600
G1X-172.000
G3X-169.000Y13.830I3.000J0.000
G1X-154.000
G3X-151.000Y16.830I0.000J3.000
G3X-154.000Y19.830I-3.000J0.000
G1X-169.000
G3X-172.000Y16.830I0.000J-3.000
G1X-169.600
G1Z-7.100F400.0
G3X-169.000Y16.230I0.600J0.000F1200.0
G1X-154.000
G3X-153.400Y16.830I0.000J0.600
G3X-154.000Y17.430I-0.600J0.000
G1X-169.000
G3X-169.600Y16.830I0.000J-0.600
G1X-172.000
G3X-169.000Y13.830I3.000J0.000
G1X-154.000
G3X-151.000Y16.830I0.000J3.000
G3X-154.000Y19.830I-3.000J0.000
G1X-169.000
G3X-172.000Y16.830I0.000J-3.000
G1X-169.600
G1Z-9.150F400.0
G3X-169.000Y16.230I0.600J0.000F1200.0
G1X-154.000
G3X-153.400Y16.830I0.000J0.600
G3X-154.000Y17.430I-0.600J0.000
G1X-169.000
G3X-169.600Y16.830I0.000J-0.600
G1X-172.000
G3X-169.000Y13.830I3.000J0.000
G1X-154.000
G3X-151.000Y16.830I0.000J3.000
G3X-154.000Y19.830I-3.000J0.000
G1X-169.000
G3X-172.000Y16.830I0.000J-3.000
G1X-169.600
G1Z-11.200F400.0
G3X-169.000Y16.230I0.600J0.000F1200.0
G1X-154.000
G3X-153.400Y16.830I0.000J0.600
G3X-154.000Y17.430I-0.600J0.000
G1X-169.000
G3X-169.600Y16.830I0.000J-0.600
G1X-172.000
G3X-169.000Y13.830I3.000J0.000
G1X-154.000
G3X-151.000Y16.830I0.000J3.000
G3X-154.000Y19.830I-3.000J0.000
G1X-169.000
G3X-172.000Y16.830I0.000J-3.000
G0Z5.080
G0X-158.300Y17.030Z5.080
G1Z-5.033F400.0
G1X-164.700F1200.0
G1Y16.630
G1X-158.300
G1Y17.030
G1Z-7.067F400.0
G1X-164.700F1200.0
G1Y16.630
G1X-158.300
G1Y17.030
G1Z-9.100F400.0
G1X-164.700F1200.0
G1Y16.630
G1X-158.300
G1Y17.030
G1Z-11.133F400.0
G1X-164.700F1200.0
G1Y16.630
G1X-158.300
G1Y17.030
G1Z-13.167F400.0
G1X-164.700F1200.0
G1Y16.630
G1X-158.300
G1Y17.030
G1Z-15.200F400.0
G1X-164.700F1200.0
G1Y16.630
G1X-158.300
G1Y17.030
G0Z5.080
G0X-117.750Y24.390
G1Z-5.033F400.0
G3X-115.750Y26.390I0.000J2.000F1200.0
G3X-117.750Y28.390I-2.000J0.000
G3X-119.750Y26.390I0.000J-2.000
G3X-117.750Y24.390I2.000J0.000
G1Z-7.067F400.0
G3X-115.750Y26.390I0.000J2.000F1200.0
G3X-117.750Y28.390I-2.000J0.000
G3X-119.750Y26.390I0.000J-2.000
G3X-117.750Y24.390I2.000J0.000
G1Z-9.100F400.0
G3X-115.750Y26.390I0.000J2.000F1200.0
G3X-117.750Y28.390I-2.000J0.000
G3X-119.750Y26.390I0.000J-2.000
G3X-117.750Y24.390I2.000J0.000
G1Z-11.133F400.0
G3X-115.750Y26.390I0.000J2.000F1200.0
G3X-117.750Y28.390I-2.000J0.000
G3X-119.750Y26.390I0.000J-2.000
G3X-117.750Y24.390I2.000J0.000
G1Z-13.167F400.0
G3X-115.750Y26.390I0.000J2.000F1200.0
G3X-117.750Y28.390I-2.000J0.000
G3X-119.750Y26.390I0.000J-2.000
G3X-117.750Y24.390I2.000J0.000
G1Z-15.200F400.0
G3X-115.750Y26.390I0.000J2.000F1200.0
G3X-117.750Y28.390I-2.000J0.000
G3X-119.750Y26.390I0.000J-2.000
G3X-117.750Y24.390I2.000J0.000
G0Z5.080
G0X-81.920
G1Z-5.033F400.0
G3X-79.920Y26.390I0.000J2.000F1200.0
G3X-81.920Y28.390I-2.000J0.000
G3X-83.920Y26.390I0.000J-2.000
G3X-81.920Y24.390I2.000J0.000
G1Z-7.067F400.0
G3X-79.920Y26.390I0.000J2.000F1200.0
G3X-81.920Y28.390I-2.000J0.000
G3X-83.920Y26.390I0.000J-2.000
G3X-81.920Y24.390I2.000J0.000
G1Z-9.100F400.0
G3X-79.920Y26.390I0.000J2.000F1200.0
G3X-81.920Y28.390I-2.000J0.000
G3X-83.920Y26.390I0.000J-2.000
G3X-81.920Y24.390I2.000J0.000
G1Z-11.133F400.0
G3X-79.920Y26.390I0.000J2.000F1200.0
G3X-81.920Y28.390I-2.000J0.000
G3X-83.920Y26.390I0.000J-2.000
G3X-81.920Y24.390I2.000J0.000
G1Z-13.167F400.0
G3X-79.920Y26.390I0.000J2.000F1200.0
G3X-81.920Y28.390I-2.000J0.000
G3X-83.920Y26.390I0.000J-2.000
G3X-81.920Y24.390I2.000J0.000
G1Z-15.200F400.0
G3X-79.920Y26.390I0.000J2.000F1200.0
G3X-81.920Y28.390I-2.000J0.000
G3X-83.920Y26.390I0.000J-2.000
G3X-81.920Y24.390I2.000J0.000
G0Z5.080
G0X3.500Y0.630Z5.080
G1Z-5.033F400.0
G2X0.500Y3.630I0.000J3.000F1200.0
G1Y41.630
G2X3.500Y44.630I3.000J0.000
G1X8.379
G1X12.621
G1X15.500
G1X24.933
G1X33.933
G1X42.933
G1X152.687
G1X161.687
G1X170.687
G1X181.500
G1X184.379
G1X188.621
G1X193.500
G2X196.500Y41.630I0.000J-3.000
G1Y3.630
G2X193.500Y0.630I-3.000J0.000
G1X188.621
G1X184.379
G1X181.500
G1X171.460
G1X162.460
G1X153.460
G1X43.964
G1X34.964
G1X25.964
G1X15.500
G1X12.621
G1X8.379
G1X3.500
G1Z-7.067F400.0
G2X0.500Y3.630I0.000J3.000F1200.0
G1Y41.630
G2X3.500Y44.630I3.000J0.000
G1X8.379
G1X12.621
G1X15.500
G1X24.933
G1X33.933
G1X42.933
G1X152.687
G1X161.687
G1X170.687
G1X181.500
G1X184.379
G1X188.621
G1X193.500
G2X196.500Y41.630I0.000J-3.000
G1Y3.630
G2X193.500Y0.630I-3.000J0.000
G1X188.621
G1X184.379
G1X181.500
G1X171.460
G1X162.460
G1X153.460
G1X43.964
G1X34.964
G1X25.964
G1X15.500
G1X12.621
G1X8.379
G1X3.500
G1Z-9.100F400.0
G2X0.500Y3.630I0.000J3.000F1200.0
G1Y41.630
G2X3.500Y44.630I3.000J0.000
G1X8.379
G1X12.621
G1X15.500
G1X24.933
G1X33.933
G1X42.933
G1X152.687
G1X161.687
G1X170.687
G1X181.500
G1X184.379
G1X188.621
G1X193.500
G2X196.500Y41.630I0.000J-3.000
G1Y3.630
G2X193.500Y0.630I-3.000J0.000
G1X188.621
G1X184.379
G1X181.500
G1X171.460
G1X162.460
G1X153.460
G1X43.964
G1X34.964
G1X25.964
G1X15.500
G1X12.621
G1X8.379
G1X3.500
G1Z-11.133F400.0
G2X0.500Y3.630I0.000J3.000F1200.0
G1Y41.630
G2X3.500Y44.630I3.000J0.000
G1X8.379
G1X12.621
G1X15.500
G1X24.933
G1X33.933
G1X42.933
G1X152.687
G1X161.687
G1X170.687
G1X181.500
G1X184.379
G1X188.621
G1X193.500
G2X196.500Y41.630I0.000J-3.000
G1Y3.630
G2X193.500Y0.630I-3.000J0.000
G1X188.621
G1X184.379
G1X181.500
G1X171.460
G1X162.460
G1X153.460
G1X43.964
G1X34.964
G1X25.964
G1X15.500
G1X12.621
G1X8.379
G1X3.500
G1Z-13.167F400.0
G2X0.500Y3.630I0.000J3.000F1200.0
G1Y41.630
G2X3.500Y44.630I3.000J0.000
G1X8.379
G1X12.621
G1X15.500
G1X24.933
G1X33.933Z-12.200
G1X42.933Z-13.167
G1X152.687
G1X161.687Z-12.200
G1X170.687Z-13.167
G1X181.500
G1X184.379
G1X188.621
G1X193.500
G2X196.500Y41.630I0.000J-3.000
G1Y3.630
G2X193.500Y0.630I-3.000J0.000
G1X188.621
G1X184.379
G1X181.500
G1X171.460
G1X162.460Z-12.200
G1X153.460Z-13.167
G1X43.964
G1X34.964Z-12.200
G1X25.964Z-13.167
G1X15.500
G1X12.621
G1X8.379
G1X3.500
G1Z-15.200F400.0
G2X0.500Y3.630I0.000J3.000F1200.0
G1Y41.630
G2X3.500Y44.630I3.000J0.000
G1X8.379
G1X12.621
G1X15.500
G1X24.933
G1X33.933Z-12.200
G1X42.933Z-15.200
G1X152.687
G1X161.687Z-12.200
G1X170.687Z-15.200
G1X181.500
G1X184.379
G1X188.621
G1X193.500
G2X196.500Y41.630I0.000J-3.000
G1Y3.630
G2X193.500Y0.630I-3.000J0.000
G1X188.621
G1X184.379
G1X181.500
G1X171.460
G1X162.460Z-12.200
G1X153.460Z-15.200
G1X43.964
G1X34.964Z-12.200
G1X25.964Z-15.200
G1X15.500
G1X12.621
G1X8.379
G1X3.500
G0Z5.080
G0Y-0.630
G1Z-5.033F400.0
G1X8.379F1200.0
G1X12.621
G1X15.500
G1X25.706
G1X34.706
G1X43.706
G1X153.460
G1X162.460
G1X171.460
G1X181.500
G1X184.379
G1X188.621
G1X193.500
G2X196.500Y-3.630I0.000J-3.000
G1Y-41.630
G2X193.500Y-44.630I-3.000J0.000
G1X188.621
G1X184.379
G1X181.500
G1X172.232
G1X163.232
G1X154.232
G1X43.706
G1X34.706
G1X25.706
G1X15.500
G1X12.621
G1X8.379
G1X3.500
G2X0.500Y-41.630I0.000J3.000
G1Y-3.630
G2X3.500Y-0.630I3.000J0.000
G1Z-7.067F400.0
G1X8.379F1200.0
G1X12.621
G1X15.500
G1X25.706
G1X34.706
G1X43.706
G1X153.460
G1X162.460
G1X171.460
G1X181.500
G1X184.379
G1X188.621
G1X193.500
G2X196.500Y-3.630I0.000J-3.000
G1Y-41.630
G2X193.500Y-44.630I-3.000J0.000
G1X188.621
G1X184.379
G1X181.500
G1X172.232
G1X163.232
G1X154.232
G1X43.706
G1X34.706
G1X25.706
G1X15.500
G1X12.621
G1X8.379
G1X3.500
G2X0.500Y-41.630I0.000J3.000
G1Y-3.630
G2X3.500Y-0.630I3.000J0.000
G1Z-9.100F400.0
G1X8.379F1200.0
G1X12.621
G1X15.500
G1X25.706
G1X34.706
G1X43.706
G1X153.460
G1X162.460
G1X171.460
G1X181.500
G1X184.379
G1X188.621
G1X193.500
G2X196.500Y-3.630I0.000J-3.000
G1Y-41.630
G2X193.500Y-44.630I-3.000J0.000
G1X188.621
G1X184.379
G1X181.500
G1X172.232
G1X163.232
G1X154.232
G1X43.706
G1X34.706
G1X25.706
G1X15.500
G1X12.621
G1X8.379
G1X3.500
G2X0.500Y-41.630I0.000J3.000
G1Y-3.630
G2X3.500Y-0.630I3.000J0.000
G1Z-11.133F400.0
G1X8.379F1200.0
G1X12.621
G1X15.500
G1X25.706
G1X34.706
G1X43.706
G1X153.460
G1X162.460
G1X171.460
G1X181.500
G1X184.379
G1X188.621
G1X193.500
G2X196.500Y-3.630I0.000J-3.000
G1Y-41.630
G2X193.500Y-44.630I-3.000J0.000
G1X188.621
G1X184.379
G1X181.500
G1X172.232
G1X163.232
G1X154.232
G1X43.706
G1X34.706
G1X25.706
G1X15.500
G1X12.621
G1X8.379
G1X3.500
G2X0.500Y-41.630I0.000J3.000
G1Y-3.630
G2X3.500Y-0.630I3.000J0.000
G1Z-13.167F400.0
G1X8.379F1200.0
G1X12.621
G1X15.500
G1X25.706
G1X34.706Z-12.200
G1X43.706Z-13.167
G1X153.460
G1X162.460Z-12.200
G1X171.460Z-13.167
G1X181.500
G1X184.379
G1X188.621
G1X193.500
G2X196.500Y-3.630I0.000J-3.000
G1Y-41.630
G2X193.500Y-44.630I-3.000J0.000
G1X188.621
G1X184.379
G1X181.500
G1X172.232
G1X163.232Z-12.200
G1X154.232Z-13.167
G1X43.706
G1X34.706Z-12.200
G1X25.706Z-13.167
G1X15.500
G1X12.621
G1X8.379
G1X3.500
G2X0.500Y-41.630I0.000J3.000
G1Y-3.630
G2X3.500Y-0.630I3.000J0.000
G1Z-15.200F400.0
G1X8.379F1200.0
G1X12.621
G1X15.500
G1X25.706
G1X34.706Z-12.200
G1X43.706Z-15.200
G1X153.460
G1X162.460Z-12.200
G1X171.460Z-15.200
G1X181.500
G1X184.379
G1X188.621
G1X193.500
G2X196.500Y-3.630I0.000J-3.000
G1Y-41.630
G2X193.500Y-44.630I-3.000J0.000
G1X188.621
G1X184.379
G1X181.500
G1X172.232
G1X163.232Z-12.200
G1X154.232Z-15.200
G1X43.706
G1X34.706Z-12.200
G1X25.706Z-15.200
G1X15.500
G1X12.621
G1X8.379
G1X3.500
G2X0.500Y-41.630I0.000J3.000
G1Y-3.630
G2X3.500Y-0.630I3.000J0.000
G0Z5.080
G0X-0.500Y-3.630
G1Z-5.033F400.0
G1Y-41.630F1200.0
G2X-3.500Y-44.630I-3.000J0.000
G1X-8.379
G1X-12.621
G1X-15.500
G1X-26.443
G1X-35.443
G1X-44.443
G1X-154.712
G1X-163.712
G1X-172.712
G1X-181.500
G1X-184.379
G1X-188.621
G1X-193.500
G2X-196.500Y-41.630I0.000J3.000
G1Y-3.630
G2X-193.500Y-0.630I3.000J0.000
G1X-188.621
G1X-184.379
G1X-181.500
G1X-171.939
G1X-162.939
G1X-153.939
G1X-43.671
G1X-34.671
G1X-25.671
G1X-15.500
G1X-12.621
G1X-8.379
G1X-3.500
G2X-0.500Y-3.630I0.000J-3.000
G1Z-7.067F400.0
G1Y-41.630F1200.0
G2X-3.500Y-44.630I-3.000J0.000
G1X-8.379
G1X-12.621
G1X-15.500
G1X-26.443
G1X-35.443
G1X-44.443
G1X-154.712
G1X-163.712
G1X-172.712
G1X-181.500
G1X-184.379
G1X-188.621
G1X-193.500
G2X-196.500Y-41.630I0.000J3.000
G1Y-3.630
G2X-193.500Y-0.630I3.000J0.000
G1X-188.621
G1X-184.379
G1X-181.500
G1X-171.939
G1X-162.939
G1X-153.939
G1X-43.671
G1X-34.671
G1X-25.671
G1X-15.500
G1X-12.621
G1X-8.379
G1X-3.500
G2X-0.500Y-3.630I0.000J-3.000
G1Z-9.100F400.0
G1Y-41.630F1200.0
G2X-3.500Y-44.630I-3.000J0.000
G1X-8.379
G1X-12.621
G1X-15.500
G1X-26.443
G1X-35.443
G1X-44.443
G1X-154.712
G1X-163.712
G1X-172.712
G1X-181.500
G1X-184.379
G1X-188.621
G1X-193.500
G2X-196.500Y-41.630I0.000J3.000
G1Y-3.630
G2X-193.500Y-0.630I3.000J0.000
G1X-188.621
G1X-184.379
G1X-181.500
G1X-171.939
G1X-162.939
G1X-153.939
G1X-43.671
G1X-34.671
G1X-25.671
G1X-15.500
G1X-12.621
G1X-8.379
G1X-3.500
G2X-0.500Y-3.630I0.000J-3.000
G1Z-11.133F400.0
G1Y-41.630F1200.0
G2X-3.500Y-44.630I-3.000J0.000
G1X-8.379
G1X-12.621
G1X-15.500
G1X-26.443
G1X-35.443
G1X-44.443
G1X-154.712
G1X-163.712
G1X-172.712
G1X-181.500
G1X-184.379
G1X-188.621
G1X-193.500
G2X-196.500Y-41.630I0.000J3.000
G1Y-3.630
G2X-193.500Y-0.630I3.000J0.000
G1X-188.621
G1X-184.379
G1X-181.500
G1X-171.939
G1X-162.939
G1X-153.939
G1X-43.671
G1X-34.671
G1X-25.671
G1X-15.500
G1X-12.621
G1X-8.379
G1X-3.500
G2X-0.500Y-3.630I0.000J-3.000
G1Z-13.167F400.0
G1Y-41.630F1200.0
G2X-3.500Y-44.630I-3.000J0.000
G1X-8.379
G1X-12.621
G1X-15.500
G1X-26.443
G1X-35.443Z-12.200
G1X-44.443Z-13.167
G1X-154.712
G1X-163.712Z-12.200
G1X-172.712Z-13.167
G1X-181.500
G1X-184.379
G1X-188.621
G1X-193.500
G2X-196.500Y-41.630I0.000J3.000
G1Y-3.630
G2X-193.500Y-0.630I3.000J0.000
G1X-188.621
G1X-184.379
G1X-181.500
G1X-171.939
G1X-162.939Z-12.200
G1X-153.939Z-13.167
G1X-43.671
G1X-34.671Z-12.200
G1X-25.671Z-13.167
G1X-15.500
G1X-12.621
G1X-8.379
G1X-3.500
G2X-0.500Y-3.630I0.000J-3.000
G1Z-15.200F400.0
G1Y-41.630F1200.0
G2X-3.500Y-44.630I-3.000J0.000
G1X-8.379
G1X-12.621
G1X-15.500
G1X-26.443
G1X-35.443Z-12.200
G1X-44.443Z-15.200
G1X-154.712
G1X-163.712Z-12.200
G1X-172.712Z-15.200
G1X-181.500
G1X-184.379
G1X-188.621
G1X-193.500
G2X-196.500Y-41.630I0.000J3.000
G1Y-3.630
G2X-193.500Y-0.630I3.000J0.000
G1X-188.621
G1X-184.379
G1X-181.500
G1X-171.939
G1X-162.939Z-12.200
G1X-153.939Z-15.200
G1X-43.671
G1X-34.671Z-12.200
G1X-25.671Z-15.200
G1X-15.500
G1X-12.621
G1X-8.379
G1X-3.500
G2X-0.500Y-3.630I0.000J-3.000
G0Z5.080
G0X-3.500Y0.630
G1Z-5.033F400.0
G1X-8.379F1200.0
G1X-12.621
G1X-15.500
G1X-25.413
G1X-34.413
G1X-43.413
G1X-153.424
G1X-162.424
G1X-171.424
G1X-181.500
G1X-184.379
G1X-188.621
G1X-193.500
G2X-196.500Y3.630I0.000J3.000
G1Y41.630
G2X-193.500Y44.630I3.000J0.000
G1X-188.621
G1X-184.379
G1X-181.500
G1X-170.394
G1X-161.394
G1X-152.394
G1X-42.383
G1X-33.383
G1X-24.383
G1X-15.500
G1X-12.621
G1X-8.379
G1X-3.500
G2X-0.500Y41.630I0.000J-3.000
G1Y3.630
G2X-3.500Y0.630I-3.000J0.000
G1Z-7.067F400.0
G1X-8.379F1200.0
G1X-12.621
G1X-15.500
G1X-25.413
G1X-34.413
G1X-43.413
G1X-153.424
G1X-162.424
G1X-171.424
G1X-181.500
G1X-184.379
G1X-188.621
G1X-193.500
G2X-196.500Y3.630I0.000J3.000
G1Y41.630
G2X-193.500Y44.630I3.000J0.000
G1X-188.621
G1X-184.379
G1X-181.500
G1X-170.394
G1X-161.394
G1X-152.394
G1X-42.383
G1X-33.383
G1X-24.383
G1X-15.500
G1X-12.621
G1X-8.379
G1X-3.500
G2X-0.500Y41.630I0.000J-3.000
G1Y3.630
G2X-3.500Y0.630I-3.000J0.000
G1Z-9.100F400.0
G1X-8.379F1200.0
G1X-12.621
G1X-15.500
G1X-25.413
G1X-34.413
G1X-43.413
G1X-153.424
G1X-162.424
G1X-171.424
G1X-181.500
G1X-184.379
G1X-188.621
G1X-193.500
G2X-196.500Y3.630I0.000J3.000
G1Y41.630
G2X-193.500Y44.630I3.000J0.000
G1X-188.621
G1X-184.379
G1X-181.500
G1X-170.394
G1X-161.394
G1X-152.394
G1X-42.383
G1X-33.383
G1X-24.383
G1X-15.500
G1X-12.621
G1X-8.379
G1X-3.500
G2X-0.500Y41.630I0.000J-3.000
G1Y3.630
G2X-3.500Y0.630I-3.000J0.000
G1Z-11.133F400.0
G1X-8.379F1200.0
G1X-12.621
G1X-15.500
G1X-25.413
G1X-34.413
G1X-43.413
G1X-153.424
G1X-162.424
G1X-171.424
G1X-181.500
G1X-184.379
G1X-188.621
G1X-193.500
G2X-196.500Y3.630I0.000J3.000
G1Y41.630
G2X-193.500Y44.630I3.000J0.000
G1X-188.621
G1X-184.379
G1X-181.500
G1X-170.394
G1X-161.394
G1X-152.394
G1X-42.383
G1X-33.383
G1X-24.383
G1X-15.500
G1X-12.621
G1X-8.379
G1X-3.500
G2X-0.500Y41.630I0.000J-3.000
G1Y3.630
G2X-3.500Y0.630I-3.000J0.000
G1Z-13.167F400.0
G1X-8.379F1200.0
G1X-12.621
G1X-15.500
G1X-25.413
G1X-34.413Z-12.200
G1X-43.413Z-13.167
G1X-153.424
G1X-162.424Z-12.200
G1X-171.424Z-13.167
G1X-181.500
G1X-184.379
G1X-188.621
G1X-193.500
G2X-196.500Y3.630I0.000J3.000
G1Y41.630
G2X-193.500Y44.630I3.000J0.000
G1X-188.621
G1X-184.379
G1X-181.500
G1X-170.394
G1X-161.394Z-12.200
G1X-152.394Z-13.167
G1X-42.383
G1X-33.383Z-12.200
G1X-24.383Z-13.167
G1X-15.500
G1X-12.621
G1X-8.379
G1X-3.500
G2X-0.500Y41.630I0.000J-3.000
G1Y3.630
G2X-3.500Y0.630I-3.000J0.000
G1Z-15.200F400.0
G1X-8.379F1200.0
G1X-12.621
G1X-15.500
G1X-25.413
G1X-34.413Z-12.200
G1X-43.413Z-15.200
G1X-153.424
G1X-162.424Z-12.200
G1X-171.424Z-15.200
G1X-181.500
G1X-184.379
G1X-188.621
G1X-193.500
G2X-196.500Y3.630I0.000J3.000
G1Y41.630
G2X-193.500Y44.630I3.000J0.000
G1X-188.621
G1X-184.379
G1X-181.500
G1X-170.394
G1X-161.394Z-12.200
G1X-152.394Z-15.200
G1X-42.383
G1X-33.383Z-12.200
G1X-24.383Z-15.200
G1X-15.500
G1X-12.621
G1X-8.379
G1X-3.500
G2X-0.500Y41.630I0.000J-3.000
G1Y3.630
G2X-3.500Y0.630I-3.000J0.000
G0Z5.080
M5
G0Z20.320
G0X0.000Y0.000
M2
