(VECTRIC POST REVISION)
(2410E23C85915A17A0D6BB4BFA509A68)
T1
G17
G21
G90
G0Z20.320
G0X0.000Y0.000
S14000M3
G0X3.500Y3.630
G0Z5.080
G1Z-5.000F300.0
G1Y41.630F950.0
G0Z5.080
G0X4.611Y3.630
G1Z-5.000F300.0
G1Y41.630F950.0
G0Z5.080
G0X5.722Y3.630
G1Z-5.000F300.0
G1Y41.630F950.0
G0Z5.080
G0X6.833Y3.630
G1Z-5.000F300.0
G1Y41.630F950.0
G0Z5.080
G0X7.944Y3.630
G1Z-5.000F300.0
G1Y41.630F950.0
G0Z5.080
G0X9.056Y3.630
G1Z-5.000F300.0
G1Y41.630F950.0
G0Z5.080
G0X10.167Y3.630
G1Z-5.000F300.0
G1Y41.630F950.0
G0Z5.080
G0X11.278Y3.630
G1Z-5.000F300.0
G1Y41.630F950.0
G0Z5.080
G0X12.389Y3.630
G1Z-5.000F300.0
G1Y41.630F950.0
G0Z5.080
G0X13.500Y3.630
G1Z-5.000F300.0
G1Y41.630F950.0
G0Z5.080
G0X3.500Y3.630
G1Z-7.000F300.0
G1Y41.630F950.0
G0Z5.080
G0X4.643Y3.630
G1Z-7.000F300.0
G1Y41.630F950.0
G0Z5.080
G0X5.786Y3.630
G1Z-7.000F300.0
G1Y41.630F950.0
G0Z5.080
G0X6.929Y3.630
G1Z-7.000F300.0
G1Y41.630F950.0
G0Z5.080
G0X8.071Y3.630
G1Z-7.000F300.0
G1Y41.630F950.0
G0Z5.080
G0X9.214Y3.630
G1Z-7.000F300.0
G1Y41.630F950.0
G0Z5.080
G0X10.357Y3.630
G1Z-7.000F300.0
G1Y41.630F950.0
G0Z5.080
G0X11.500Y3.630
G1Z-7.000F300.0
G1Y41.630F950.0
G0Z5.080
G0X3.500Y3.630
G1Z-9.000F300.0
G1Y41.630F950.0
G0Z5.080
G0X4.700Y3.630
G1Z-9.000F300.0
G1Y41.630F950.0
G0Z5.080
G0X5.900Y3.630
G1Z-9.000F300.0
G1Y41.630F950.0
G0Z5.080
G0X7.100Y3.630
G1Z-9.000F300.0
G1Y41.630F950.0
G0Z5.080
G0X8.300Y3.630
G1Z-9.000F300.0
G1Y41.630F950.0
G0Z5.080
G0X9.500Y3.630
G1Z-9.000F300.0
G1Y41.630F950.0
G0Z5.080
G0X3.500Y3.630
G1Z-11.000F300.0
G1Y41.630F950.0
G0Z5.080
G0X4.500Y3.630
G1Z-11.000F300.0
G1Y41.630F950.0
G0Z5.080
G0X5.500Y3.630
G1Z-11.000F300.0
G1Y41.630F950.0
G0Z5.080
G0X6.500Y3.630
G1Z-11.000F300.0
G1Y41.630F950.0
G0Z5.080
G0X7.500Y3.630
G1Z-11.000F300.0
G1Y41.630F950.0
G0Z5.080
G0X3.500Y3.630
G1Z-13.000F300.0
G1Y41.630F950.0
G0Z5.080
G0X4.500Y3.630
G1Z-13.000F300.0
G1Y41.630F950.0
G0Z5.080
G0X5.500Y3.630
G1Z-13.000F300.0
G1Y41.630F950.0
G0Z5.080
G0X3.500Y3.630
G1Z-15.000F300.0
G1Y41.630F950.0
G0Z5.080
G0X4.611Y-41.630
G1Z-5.000F300.0
G1Y-3.630F950.0
G0Z5.080
G0X3.500Y-41.630
G1Z-5.000F300.0
G1Y-3.630F950.0
G0Z5.080
G0X5.722Y-41.630
G1Z-5.000F300.0
G1Y-3.630F950.0
G0Z5.080
G0X11.278Y-41.630
G1Z-5.000F300.0
G1Y-3.630F950.0
G0Z5.080
G0X7.944Y-41.630
G1Z-5.000F300.0
G1Y-3.630F950.0
G0Z5.080
G0X9.056Y-41.630
G1Z-5.000F300.0
G1Y-3.630F950.0
G0Z5.080
G0X12.389Y-41.630
G1Z-5.000F300.0
G1Y-3.630F950.0
G0Z5.080
G0X13.500Y-41.630
G1Z-5.000F300.0
G1Y-3.630F950.0
G0Z5.080
G0X6.833Y-41.630
G1Z-5.000F300.0
G1Y-3.630F950.0
G0Z5.080
G0X10.167Y-41.630
G1Z-5.000F300.0
G1Y-3.630F950.0
G0Z5.080
G0X3.500Y-41.630
G1Z-7.000F300.0
G1Y-3.630F950.0
G0Z5.080
G0X4.643Y-41.630
G1Z-7.000F300.0
G1Y-3.630F950.0
G0Z5.080
G0X10.357Y-41.630
G1Z-7.000F300.0
G1Y-3.630F950.0
G0Z5.080
G0X5.786Y-41.630
G1Z-7.000F300.0
G1Y-3.630F950.0
G0Z5.080
G0X11.500Y-41.630
G1Z-7.000F300.0
G1Y-3.630F950.0
G0Z5.080
G0X6.929Y-41.630
G1Z-7.000F300.0
G1Y-3.630F950.0
G0Z5.080
G0X9.214Y-41.630
G1Z-7.000F300.0
G1Y-3.630F950.0
G0Z5.080
G0X8.071Y-41.630
G1Z-7.000F300.0
G1Y-3.630F950.0
G0Z5.080
G0X3.500Y-41.630
G1Z-9.000F300.0
G1Y-3.630F950.0
G0Z5.080
G0X4.700Y-41.630
G1Z-9.000F300.0
G1Y-3.630F950.0
G0Z5.080
G0X7.100Y-41.630
G1Z-9.000F300.0
G1Y-3.630F950.0
G0Z5.080
G0X5.900Y-41.630
G1Z-9.000F300.0
G1Y-3.630F950.0
G0Z5.080
G0X9.500Y-41.630
G1Z-9.000F300.0
G1Y-3.630F950.0
G0Z5.080
G0X8.300Y-41.630
G1Z-9.000F300.0
G1Y-3.630F950.0
G0Z5.080
G0X3.500Y-41.630
G1Z-11.000F300.0
G1Y-3.630F950.0
G0Z5.080
G0X4.500Y-41.630
G1Z-11.000F300.0
G1Y-3.630F950.0
G0Z5.080
G0X5.500Y-41.630
G1Z-11.000F300.0
G1Y-3.630F950.0
G0Z5.080
G0X6.500Y-41.630
G1Z-11.000F300.0
G1Y-3.630F950.0
G0Z5.080
G0X7.500Y-41.630
G1Z-11.000F300.0
G1Y-3.630F950.0
G0Z5.080
G0X3.500Y-41.630
G1Z-13.000F300.0
G1Y-3.630F950.0
G0Z5.080
G0X4.500Y-41.630
G1Z-13.000F300.0
G1Y-3.630F950.0
G0Z5.080
G0X5.500Y-41.630
G1Z-13.000F300.0
G1Y-3.630F950.0
G0Z5.080
G0X3.500Y-41.630
G1Z-15.000F300.0
G1Y-3.630F950.0
G0Z5.080
G0X-184.611Y3.630
G1Z-5.000F300.0
G1Y41.630F950.0
G0Z5.080
G0X-185.722Y3.630
G1Z-5.000F300.0
G1Y41.630F950.0
G0Z5.080
G0X-186.833Y3.630
G1Z-5.000F300.0
G1Y41.630F950.0
G0Z5.080
G0X-187.944Y3.630
G1Z-5.000F300.0
G1Y41.630F950.0
G0Z5.080
G0X-189.056Y3.630
G1Z-5.000F300.0
G1Y41.630F950.0
G0Z5.080
G0X-190.167Y3.630
G1Z-5.000F300.0
G1Y41.630F950.0
G0Z5.080
G0X-191.278Y3.630
G1Z-5.000F300.0
G1Y41.630F950.0
G0Z5.080
G0X-192.389Y3.630
G1Z-5.000F300.0
G1Y41.630F950.0
G0Z5.080
G0X-193.500Y3.630
G1Z-5.000F300.0
G1Y41.630F950.0
G0Z5.080
G0X-183.500Y3.630
G1Z-5.000F300.0
G1Y41.630F950.0
G0Z5.080
G0X-186.643Y3.630
G1Z-7.000F300.0
G1Y41.630F950.0
G0Z5.080
G0X-187.786Y3.630
G1Z-7.000F300.0
G1Y41.630F950.0
G0Z5.080
G0X-188.929Y3.630
G1Z-7.000F300.0
G1Y41.630F950.0
G0Z5.080
G0X-190.071Y3.630
G1Z-7.000F300.0
G1Y41.630F950.0
G0Z5.080
G0X-191.214Y3.630
G1Z-7.000F300.0
G1Y41.630F950.0
G0Z5.080
G0X-192.357Y3.630
G1Z-7.000F300.0
G1Y41.630F950.0
G0Z5.080
G0X-193.500Y3.630
G1Z-7.000F300.0
G1Y41.630F950.0
G0Z5.080
G0X-185.500Y3.630
G1Z-7.000F300.0
G1Y41.630F950.0
G0Z5.080
G0X-188.700Y3.630
G1Z-9.000F300.0
G1Y41.630F950.0
G0Z5.080
G0X-189.900Y3.630
G1Z-9.000F300.0
G1Y41.630F950.0
G0Z5.080
G0X-191.100Y3.630
G1Z-9.000F300.0
G1Y41.630F950.0
G0Z5.080
G0X-192.300Y3.630
G1Z-9.000F300.0
G1Y41.630F950.0
G0Z5.080
G0X-193.500Y3.630
G1Z-9.000F300.0
G1Y41.630F950.0
G0Z5.080
G0X-187.500Y3.630
G1Z-9.000F300.0
G1Y41.630F950.0
G0Z5.080
G0X-190.500Y3.630
G1Z-11.000F300.0
G1Y41.630F950.0
G0Z5.080
G0X-191.500Y3.630
G1Z-11.000F300.0
G1Y41.630F950.0
G0Z5.080
G0X-192.500Y3.630
G1Z-11.000F300.0
G1Y41.630F950.0
G0Z5.080
G0X-193.500Y3.630
G1Z-11.000F300.0
G1Y41.630F950.0
G0Z5.080
G0X-189.500Y3.630
G1Z-11.000F300.0
G1Y41.630F950.0
G0Z5.080
G0X-192.500Y3.630
G1Z-13.000F300.0
G1Y41.630F950.0
G0Z5.080
G0X-193.500Y3.630
G1Z-13.000F300.0
G1Y41.630F950.0
G0Z5.080
G0X-191.500Y3.630
G1Z-13.000F300.0
G1Y41.630F950.0
G0Z5.080
G0X-193.500Y3.630
G1Z-15.000F300.0
G1Y41.630F950.0
G0Z5.080
G0X-184.611Y-41.630
G1Z-5.000F300.0
G1Y-3.630F950.0
G0Z5.080
G0X-185.722Y-41.630
G1Z-5.000F300.0
G1Y-3.630F950.0
G0Z5.080
G0X-186.833Y-41.630
G1Z-5.000F300.0
G1Y-3.630F950.0
G0Z5.080
G0X-187.944Y-41.630
G1Z-5.000F300.0
G1Y-3.630F950.0
G0Z5.080
G0X-189.056Y-41.630
G1Z-5.000F300.0
G1Y-3.630F950.0
G0Z5.080
G0X-190.167Y-41.630
G1Z-5.000F300.0
G1Y-3.630F950.0
G0Z5.080
G0X-191.278Y-41.630
G1Z-5.000F300.0
G1Y-3.630F950.0
G0Z5.080
G0X-192.389Y-41.630
G1Z-5.000F300.0
G1Y-3.630F950.0
G0Z5.080
G0X-193.500Y-41.630
G1Z-5.000F300.0
G1Y-3.630F950.0
G0Z5.080
G0X-183.500Y-41.630
G1Z-5.000F300.0
G1Y-3.630F950.0
G0Z5.080
G0X-185.500Y-41.630
G1Z-7.000F300.0
G1Y-3.630F950.0
G0Z5.080
G0X-186.643Y-41.630
G1Z-7.000F300.0
G1Y-3.630F950.0
G0Z5.080
G0X-187.786Y-41.630
G1Z-7.000F300.0
G1Y-3.630F950.0
G0Z5.080
G0X-188.929Y-41.630
G1Z-7.000F300.0
G1Y-3.630F950.0
G0Z5.080
G0X-190.071Y-41.630
G1Z-7.000F300.0
G1Y-3.630F950.0
G0Z5.080
G0X-191.214Y-41.630
G1Z-7.000F300.0
G1Y-3.630F950.0
G0Z5.080
G0X-192.357Y-41.630
G1Z-7.000F300.0
G1Y-3.630F950.0
G0Z5.080
G0X-193.500Y-41.630
G1Z-7.000F300.0
G1Y-3.630F950.0
G0Z5.080
G0X-187.500Y-41.630
G1Z-9.000F300.0
G1Y-3.630F950.0
G0Z5.080
G0X-188.700Y-41.630
G1Z-9.000F300.0
G1Y-3.630F950.0
G0Z5.080
G0X-189.900Y-41.630
G1Z-9.000F300.0
G1Y-3.630F950.0
G0Z5.080
G0X-191.100Y-41.630
G1Z-9.000F300.0
G1Y-3.630F950.0
G0Z5.080
G0X-192.300Y-41.630
G1Z-9.000F300.0
G1Y-3.630F950.0
G0Z5.080
G0X-193.500Y-41.630
G1Z-9.000F300.0
G1Y-3.630F950.0
G0Z5.080
G0X-189.500Y-41.630
G1Z-11.000F300.0
G1Y-3.630F950.0
G0Z5.080
G0X-190.500Y-41.630
G1Z-11.000F300.0
G1Y-3.630F950.0
G0Z5.080
G0X-191.500Y-41.630
G1Z-11.000F300.0
G1Y-3.630F950.0
G0Z5.080
G0X-192.500Y-41.630
G1Z-11.000F300.0
G1Y-3.630F950.0
G0Z5.080
G0X-193.500Y-41.630
G1Z-11.000F300.0
G1Y-3.630F950.0
G0Z5.080
G0Y-41.630
G1Z-13.000F300.0
G1Y-3.630F950.0
G0Z5.080
G0X-192.500Y-41.630
G1Z-13.000F300.0
G1Y-3.630F950.0
G0Z5.080
G0X-191.500Y-41.630
G1Z-13.000F300.0
G1Y-3.630F950.0
G0Z5.080
G0X-193.500Y-41.630
G1Z-15.000F300.0
G1Y-3.630F950.0
G0Z5.080
G0X-3.500Y-3.630Z5.080
G1Z-5.000F300.0
G1Y-41.630F950.0
G0Z5.080
G0X-4.611Y-3.630
G1Z-5.000F300.0
G1Y-41.630F950.0
G0Z5.080
G0X-5.722Y-3.630
G1Z-5.000F300.0
G1Y-41.630F950.0
G0Z5.080
G0X-6.833Y-3.630
G1Z-5.000F300.0
G1Y-41.630F950.0
G0Z5.080
G0X-7.944Y-3.630
G1Z-5.000F300.0
G1Y-41.630F950.0
G0Z5.080
G0X-9.056Y-3.630
G1Z-5.000F300.0
G1Y-41.630F950.0
G0Z5.080
G0X-10.167Y-3.630
G1Z-5.000F300.0
G1Y-41.630F950.0
G0Z5.080
G0X-11.278Y-3.630
G1Z-5.000F300.0
G1Y-41.630F950.0
G0Z5.080
G0X-12.389Y-3.630
G1Z-5.000F300.0
G1Y-41.630F950.0
G0Z5.080
G0X-13.500Y-3.630
G1Z-5.000F300.0
G1Y-41.630F950.0
G0Z5.080
G0X-3.500Y-3.630
G1Z-7.000F300.0
G1Y-41.630F950.0
G0Z5.080
G0X-4.643Y-3.630
G1Z-7.000F300.0
G1Y-41.630F950.0
G0Z5.080
G0X-5.786Y-3.630
G1Z-7.000F300.0
G1Y-41.630F950.0
G0Z5.080
G0X-6.929Y-3.630
G1Z-7.000F300.0
G1Y-41.630F950.0
G0Z5.080
G0X-8.071Y-3.630
G1Z-7.000F300.0
G1Y-41.630F950.0
G0Z5.080
G0X-9.214Y-3.630
G1Z-7.000F300.0
G1Y-41.630F950.0
G0Z5.080
G0X-10.357Y-3.630
G1Z-7.000F300.0
G1Y-41.630F950.0
G0Z5.080
G0X-11.500Y-3.630
G1Z-7.000F300.0
G1Y-41.630F950.0
G0Z5.080
G0X-3.500Y-3.630
G1Z-9.000F300.0
G1Y-41.630F950.0
G0Z5.080
G0X-4.700Y-3.630
G1Z-9.000F300.0
G1Y-41.630F950.0
G0Z5.080
G0X-5.900Y-3.630
G1Z-9.000F300.0
G1Y-41.630F950.0
G0Z5.080
G0X-7.100Y-3.630
G1Z-9.000F300.0
G1Y-41.630F950.0
G0Z5.080
G0X-8.300Y-3.630
G1Z-9.000F300.0
G1Y-41.630F950.0
G0Z5.080
G0X-9.500Y-3.630
G1Z-9.000F300.0
G1Y-41.630F950.0
G0Z5.080
G0X-3.500Y-3.630
G1Z-11.000F300.0
G1Y-41.630F950.0
G0Z5.080
G0X-4.500Y-3.630
G1Z-11.000F300.0
G1Y-41.630F950.0
G0Z5.080
G0X-5.500Y-3.630
G1Z-11.000F300.0
G1Y-41.630F950.0
G0Z5.080
G0X-6.500Y-3.630
G1Z-11.000F300.0
G1Y-41.630F950.0
G0Z5.080
G0X-7.500Y-3.630
G1Z-11.000F300.0
G1Y-41.630F950.0
G0Z5.080
G0X-3.500Y-3.630
G1Z-13.000F300.0
G1Y-41.630F950.0
G0Z5.080
G0X-4.500Y-3.630
G1Z-13.000F300.0
G1Y-41.630F950.0
G0Z5.080
G0X-5.500Y-3.630
G1Z-13.000F300.0
G1Y-41.630F950.0
G0Z5.080
G0X-3.500Y-3.630
G1Z-15.000F300.0
G1Y-41.630F950.0
G0Z5.080
G0X-13.500Y41.630
G1Z-5.000F300.0
G1Y3.630F950.0
G0Z5.080
G0X-12.389Y41.630
G1Z-5.000F300.0
G1Y3.630F950.0
G0Z5.080
G0X-11.278Y41.630
G1Z-5.000F300.0
G1Y3.630F950.0
G0Z5.080
G0X-10.167Y41.630
G1Z-5.000F300.0
G1Y3.630F950.0
G0Z5.080
G0X-9.056Y41.630
G1Z-5.000F300.0
G1Y3.630F950.0
G0Z5.080
G0X-7.944Y41.630
G1Z-5.000F300.0
G1Y3.630F950.0
G0Z5.080
G0X-6.833Y41.630
G1Z-5.000F300.0
G1Y3.630F950.0
G0Z5.080
G0X-5.722Y41.630
G1Z-5.000F300.0
G1Y3.630F950.0
G0Z5.080
G0X-4.611Y41.630
G1Z-5.000F300.0
G1Y3.630F950.0
G0Z5.080
G0X-3.500Y41.630
G1Z-5.000F300.0
G1Y3.630F950.0
G0Z5.080
G0X-11.500Y41.630
G1Z-7.000F300.0
G1Y3.630F950.0
G0Z5.080
G0X-10.357Y41.630
G1Z-7.000F300.0
G1Y3.630F950.0
G0Z5.080
G0X-9.214Y41.630
G1Z-7.000F300.0
G1Y3.630F950.0
G0Z5.080
G0X-8.071Y41.630
G1Z-7.000F300.0
G1Y3.630F950.0
G0Z5.080
G0X-6.929Y41.630
G1Z-7.000F300.0
G1Y3.630F950.0
G0Z5.080
G0X-5.786Y41.630
G1Z-7.000F300.0
G1Y3.630F950.0
G0Z5.080
G0X-4.643Y41.630
G1Z-7.000F300.0
G1Y3.630F950.0
G0Z5.080
G0X-3.500Y41.630
G1Z-7.000F300.0
G1Y3.630F950.0
G0Z5.080
G0X-9.500Y41.630
G1Z-9.000F300.0
G1Y3.630F950.0
G0Z5.080
G0X-8.300Y41.630
G1Z-9.000F300.0
G1Y3.630F950.0
G0Z5.080
G0X-7.100Y41.630
G1Z-9.000F300.0
G1Y3.630F950.0
G0Z5.080
G0X-5.900Y41.630
G1Z-9.000F300.0
G1Y3.630F950.0
G0Z5.080
G0X-4.700Y41.630
G1Z-9.000F300.0
G1Y3.630F950.0
G0Z5.080
G0X-3.500Y41.630
G1Z-9.000F300.0
G1Y3.630F950.0
G0Z5.080
G0X-7.500Y41.630
G1Z-11.000F300.0
G1Y3.630F950.0
G0Z5.080
G0X-6.500Y41.630
G1Z-11.000F300.0
G1Y3.630F950.0
G0Z5.080
G0X-5.500Y41.630
G1Z-11.000F300.0
G1Y3.630F950.0
G0Z5.080
G0X-4.500Y41.630
G1Z-11.000F300.0
G1Y3.630F950.0
G0Z5.080
G0X-3.500Y41.630
G1Z-11.000F300.0
G1Y3.630F950.0
G0Z5.080
G0X-5.500Y41.630
G1Z-13.000F300.0
G1Y3.630F950.0
G0Z5.080
G0X-4.500Y41.630
G1Z-13.000F300.0
G1Y3.630F950.0
G0Z5.080
G0X-3.500Y41.630
G1Z-13.000F300.0
G1Y3.630F950.0
G0Z5.080
G0Y41.630
G1Z-15.000F300.0
G1Y3.630F950.0
G0Z5.080
G0X183.500Y-3.630
G1Z-5.000F300.0
G1Y-41.630F950.0
G0Z5.080
G0X184.611Y-3.630
G1Z-5.000F300.0
G1Y-41.630F950.0
G0Z5.080
G0X185.722Y-3.630
G1Z-5.000F300.0
G1Y-41.630F950.0
G0Z5.080
G0X186.833Y-3.630
G1Z-5.000F300.0
G1Y-41.630F950.0
G0Z5.080
G0X187.944Y-3.630
G1Z-5.000F300.0
G1Y-41.630F950.0
G0Z5.080
G0X189.056Y-3.630
G1Z-5.000F300.0
G1Y-41.630F950.0
G0Z5.080
G0X190.167Y-3.630
G1Z-5.000F300.0
G1Y-41.630F950.0
G0Z5.080
G0X191.278Y-3.630
G1Z-5.000F300.0
G1Y-41.630F950.0
G0Z5.080
G0X192.389Y-3.630
G1Z-5.000F300.0
G1Y-41.630F950.0
G0Z5.080
G0X193.500Y-3.630
G1Z-5.000F300.0
G1Y-41.630F950.0
G0Z5.080
G0X186.643Y-3.630
G1Z-7.000F300.0
G1Y-41.630F950.0
G0Z5.080
G0X187.786Y-3.630
G1Z-7.000F300.0
G1Y-41.630F950.0
G0Z5.080
G0X188.929Y-3.630
G1Z-7.000F300.0
G1Y-41.630F950.0
G0Z5.080
G0X190.071Y-3.630
G1Z-7.000F300.0
G1Y-41.630F950.0
G0Z5.080
G0X191.214Y-3.630
G1Z-7.000F300.0
G1Y-41.630F950.0
G0Z5.080
G0X192.357Y-3.630
G1Z-7.000F300.0
G1Y-41.630F950.0
G0Z5.080
G0X193.500Y-3.630
G1Z-7.000F300.0
G1Y-41.630F950.0
G0Z5.080
G0X185.500Y-3.630
G1Z-7.000F300.0
G1Y-41.630F950.0
G0Z5.080
G0X188.700Y-3.630
G1Z-9.000F300.0
G1Y-41.630F950.0
G0Z5.080
G0X189.900Y-3.630
G1Z-9.000F300.0
G1Y-41.630F950.0
G0Z5.080
G0X191.100Y-3.630
G1Z-9.000F300.0
G1Y-41.630F950.0
G0Z5.080
G0X192.300Y-3.630
G1Z-9.000F300.0
G1Y-41.630F950.0
G0Z5.080
G0X193.500Y-3.630
G1Z-9.000F300.0
G1Y-41.630F950.0
G0Z5.080
G0X187.500Y-3.630
G1Z-9.000F300.0
G1Y-41.630F950.0
G0Z5.080
G0X190.500Y-3.630
G1Z-11.000F300.0
G1Y-41.630F950.0
G0Z5.080
G0X191.500Y-3.630
G1Z-11.000F300.0
G1Y-41.630F950.0
G0Z5.080
G0X192.500Y-3.630
G1Z-11.000F300.0
G1Y-41.630F950.0
G0Z5.080
G0X193.500Y-3.630
G1Z-11.000F300.0
G1Y-41.630F950.0
G0Z5.080
G0X189.500Y-3.630
G1Z-11.000F300.0
G1Y-41.630F950.0
G0Z5.080
G0X192.500Y-3.630
G1Z-13.000F300.0
G1Y-41.630F950.0
G0Z5.080
G0X193.500Y-3.630
G1Z-13.000F300.0
G1Y-41.630F950.0
G0Z5.080
G0X191.500Y-3.630
G1Z-13.000F300.0
G1Y-41.630F950.0
G0Z5.080
G0X193.500Y-3.630
G1Z-15.000F300.0
G1Y-41.630F950.0
G0Z5.080
G0X184.611Y41.630
G1Z-5.000F300.0
G1Y3.630F950.0
G0Z5.080
G0X185.722Y41.630
G1Z-5.000F300.0
G1Y3.630F950.0
G0Z5.080
G0X186.833Y41.630
G1Z-5.000F300.0
G1Y3.630F950.0
G0Z5.080
G0X187.944Y41.630
G1Z-5.000F300.0
G1Y3.630F950.0
G0Z5.080
G0X189.056Y41.630
G1Z-5.000F300.0
G1Y3.630F950.0
G0Z5.080
G0X190.167Y41.630
G1Z-5.000F300.0
G1Y3.630F950.0
G0Z5.080
G0X191.278Y41.630
G1Z-5.000F300.0
G1Y3.630F950.0
G0Z5.080
G0X192.389Y41.630
G1Z-5.000F300.0
G1Y3.630F950.0
G0Z5.080
G0X193.500Y41.630
G1Z-5.000F300.0
G1Y3.630F950.0
G0Z5.080
G0X183.500Y41.630
G1Z-5.000F300.0
G1Y3.630F950.0
G0Z5.080
G0X185.500Y41.630
G1Z-7.000F300.0
G1Y3.630F950.0
G0Z5.080
G0X186.643Y41.630
G1Z-7.000F300.0
G1Y3.630F950.0
G0Z5.080
G0X187.786Y41.630
G1Z-7.000F300.0
G1Y3.630F950.0
G0Z5.080
G0X188.929Y41.630
G1Z-7.000F300.0
G1Y3.630F950.0
G0Z5.080
G0X190.071Y41.630
G1Z-7.000F300.0
G1Y3.630F950.0
G0Z5.080
G0X191.214Y41.630
G1Z-7.000F300.0
G1Y3.630F950.0
G0Z5.080
G0X192.357Y41.630
G1Z-7.000F300.0
G1Y3.630F950.0
G0Z5.080
G0X193.500Y41.630
G1Z-7.000F300.0
G1Y3.630F950.0
G0Z5.080
G0X189.900Y41.630
G1Z-9.000F300.0
G1Y3.630F950.0
G0Z5.080
G0X188.700Y41.630
G1Z-9.000F300.0
G1Y3.630F950.0
G0Z5.080
G0X191.100Y41.630
G1Z-9.000F300.0
G1Y3.630F950.0
G0Z5.080
G0X193.500Y41.630
G1Z-9.000F300.0
G1Y3.630F950.0
G0Z5.080
G0X192.300Y41.630
G1Z-9.000F300.0
G1Y3.630F950.0
G0Z5.080
G0X187.500Y41.630
G1Z-9.000F300.0
G1Y3.630F950.0
G0Z5.080
G0X191.500Y41.630
G1Z-11.000F300.0
G1Y3.630F950.0
G0Z5.080
G0X190.500Y41.630
G1Z-11.000F300.0
G1Y3.630F950.0
G0Z5.080
G0X192.500Y41.630
G1Z-11.000F300.0
G1Y3.630F950.0
G0Z5.080
G0X193.500Y41.630
G1Z-11.000F300.0
G1Y3.630F950.0
G0Z5.080
G0X189.500Y41.630
G1Z-11.000F300.0
G1Y3.630F950.0
G0Z5.080
G0X191.500Y41.630
G1Z-13.000F300.0
G1Y3.630F950.0
G0Z5.080
G0X192.500Y41.630
G1Z-13.000F300.0
G1Y3.630F950.0
G0Z5.080
G0X193.500Y41.630
G1Z-13.000F300.0
G1Y3.630F950.0
G0Z5.080
G0Y41.630
G1Z-15.000F300.0
G1Y3.630F950.0
G0Z5.080
M5
G0Z20.320
G0X0.000Y0.000
M2
