(VECTRIC POST REVISION)
(2410E23C85915A17A0D6BB4BFA509A68)
T1
G17
G21
G90
G0Z20.320
G0X0.000Y0.000
S18000M3
G0X91.259Y156.500
G0Z5.080
G1Z-1.800F400.0
G1X129.259F1200.0
G1Y158.500
G1X91.259
G1Y156.500
G1X88.859Y154.100
G1X131.659
G1Y160.900
G1X88.859
G1Y154.100
G1X86.459Y151.700
G1X134.059
G1Y163.300
G1X86.459
G1Y151.700
G1X84.059Y149.300
G1X136.459
G1Y165.700
G1X84.059
G1Y149.300
G1X81.659Y146.900
G1X138.859
G1Y168.100
G1X81.659
G1Y146.900
G1X79.259Y144.500
G1X141.259
G1Y170.500
G1X79.259
G1Y144.500
G1X76.859Y142.100
G1X143.659
G1Y172.900
G1X76.859
G1Y142.100
G1X74.459Y139.700
G1X146.059
G1Y175.300
G1X74.459
G1Y139.700
G1X72.059Y137.300
G1X148.459
G1Y177.700
G1X72.059
G1Y137.300
G1X69.659Y134.900
G1X150.859
G1Y180.100
G1X69.659
G1Y134.900
G1X67.259Y132.500
G1X153.259
G1Y182.500
G1X67.259
G1Y132.500
G1X69.659Y134.900
G1X72.059Y137.300
G1X74.459Y139.700
G1X76.859Y142.100
G1X79.259Y144.500
G1X81.659Y146.900
G1X84.059Y149.300
G1X86.459Y151.700
G1X88.859Y154.100
G1X91.259Y156.500
G1Z-3.600F400.0
G1X129.259F1200.0
G1Y158.500
G1X91.259
G1Y156.500
G1X88.859Y154.100
G1X131.659
G1Y160.900
G1X88.859
G1Y154.100
G1X86.459Y151.700
G1X134.059
G1Y163.300
G1X86.459
G1Y151.700
G1X84.059Y149.300
G1X136.459
G1Y165.700
G1X84.059
G1Y149.300
G1X81.659Y146.900
G1X138.859
G1Y168.100
G1X81.659
G1Y146.900
G1X79.259Y144.500
G1X141.259
G1Y170.500
G1X79.259
G1Y144.500
G1X76.859Y142.100
G1X143.659
G1Y172.900
G1X76.859
G1Y142.100
G1X74.459Y139.700
G1X146.059
G1Y175.300
G1X74.459
G1Y139.700
G1X72.059Y137.300
G1X148.459
G1Y177.700
G1X72.059
G1Y137.300
G1X69.659Y134.900
G1X150.859
G1Y180.100
G1X69.659
G1Y134.900
G1X67.259Y132.500
G1X153.259
G1Y182.500
G1X67.259
G1Y132.500
G0Z5.080
G0X96.881Y159.400Z5.080
G1Z-1.533F400.0
G1Y155.600F1200.0
G1X119.681
G1Y159.400
G1X96.881
G1X94.481Y161.800
G1Y153.200
G1X122.081
G1Y161.800
G1X94.481
G1X92.081Y164.200
G1Y150.800
G1X124.481
G1Y164.200
G1X92.081
G1X89.681Y166.600
G1Y148.400
G1X126.881
G1Y166.600
G1X89.681
G1X87.281Y169.000
G1Y146.000
G1X129.281
G1Y169.000
G1X87.281
G1X84.881Y171.400
G1Y143.600
G1X131.681
G1Y171.400
G1X84.881
G1X82.481Y173.800
G1Y141.200
G1X134.081
G1Y173.800
G1X82.481
G1X80.081Y176.200
G1Y138.800
G1X136.481
G1Y176.200
G1X80.081
G1X77.681Y178.600
G1Y136.400
G1X138.881
G1Y178.600
G1X77.681
G1X75.281Y181.000
G1Y134.000
G1X141.281
G1Y181.000
G1X75.281
G1X77.681Y178.600
G1X80.081Y176.200
G1X82.481Y173.800
G1X84.881Y171.400
G1X87.281Y169.000
G1X89.681Y166.600
G1X92.081Y164.200
G1X94.481Y161.800
G1X96.881Y159.400
G1Z-3.067F400.0
G1Y155.600F1200.0
G1X119.681
G1Y159.400
G1X96.881
G1X94.481Y161.800
G1Y153.200
G1X122.081
G1Y161.800
G1X94.481
G1X92.081Y164.200
G1Y150.800
G1X124.481
G1Y164.200
G1X92.081
G1X89.681Y166.600
G1Y148.400
G1X126.881
G1Y166.600
G1X89.681
G1X87.281Y169.000
G1Y146.000
G1X129.281
G1Y169.000
G1X87.281
G1X84.881Y171.400
G1Y143.600
G1X131.681
G1Y171.400
G1X84.881
G1X82.481Y173.800
G1Y141.200
G1X134.081
G1Y173.800
G1X82.481
G1X80.081Y176.200
G1Y138.800
G1X136.481
G1Y176.200
G1X80.081
G1X77.681Y178.600
G1Y136.400
G1X138.881
G1Y178.600
G1X77.681
G1X75.281Y181.000
G1Y134.000
G1X141.281
G1Y181.000
G1X75.281
G1X77.681Y178.600
G1X80.081Y176.200
G1X82.481Y173.800
G1X84.881Y171.400
G1X87.281Y169.000
G1X89.681Y166.600
G1X92.081Y164.200
G1X94.481Y161.800
G1X96.881Y159.400
G1Z-4.600F400.0
G1Y155.600F1200.0
G1X119.681
G1Y159.400
G1X96.881
G1X94.481Y161.800
G1Y153.200
G1X122.081
G1Y161.800
G1X94.481
G1X92.081Y164.200
G1Y150.800
G1X124.481
G1Y164.200
G1X92.081
G1X89.681Y166.600
G1Y148.400
G1X126.881
G1Y166.600
G1X89.681
G1X87.281Y169.000
G1Y146.000
G1X129.281
G1Y169.000
G1X87.281
G1X84.881Y171.400
G1Y143.600
G1X131.681
G1Y171.400
G1X84.881
G1X82.481Y173.800
G1Y141.200
G1X134.081
G1Y173.800
G1X82.481
G1X80.081Y176.200
G1Y138.800
G1X136.481
G1Y176.200
G1X80.081
G1X77.681Y178.600
G1Y136.400
G1X138.881
G1Y178.600
G1X77.681
G1X75.281Y181.000
G1Y134.000
G1X141.281
G1Y181.000
G1X75.281
G0Z5.080
G0X97.200Y157.200Z5.080
G1Z-1.550F400.0
G1X112.800F1200.0
G1Y157.800
G1X97.200
G1Y157.200
G1X94.800Y154.800
G1X115.200
G1Y160.200
G1X94.800
G1Y154.800
G1X92.400Y152.400
G1X117.600
G1Y162.600
G1X92.400
G1Y152.400
G1X90.000Y150.000
G1X120.000
G1Y165.000
G1X90.000
G1Y150.000
G1X87.600Y147.600
G1X122.400
G1Y167.400
G1X87.600
G1Y147.600
G1X85.200Y145.200
G1X124.800
G1Y169.800
G1X85.200
G1Y145.200
G1X82.800Y142.800
G1X127.200
G1Y172.200
G1X82.800
G1Y142.800
G1X80.400Y140.400
G1X129.600
G1Y174.600
G1X80.400
G1Y140.400
G1X78.000Y138.000
G1X132.000
G1Y177.000
G1X78.000
G1Y138.000
G1X80.400Y140.400
G1X82.800Y142.800
G1X85.200Y145.200
G1X87.600Y147.600
G1X90.000Y150.000
G1X92.400Y152.400
G1X94.800Y154.800
G1X97.200Y157.200
G1Z-3.100F400.0
G1X112.800F1200.0
G1Y157.800
G1X97.200
G1Y157.200
G1X94.800Y154.800
G1X115.200
G1Y160.200
G1X94.800
G1Y154.800
G1X92.400Y152.400
G1X117.600
G1Y162.600
G1X92.400
G1Y152.400
G1X90.000Y150.000
G1X120.000
G1Y165.000
G1X90.000
G1Y150.000
G1X87.600Y147.600
G1X122.400
G1Y167.400
G1X87.600
G1Y147.600
G1X85.200Y145.200
G1X124.800
G1Y169.800
G1X85.200
G1Y145.200
G1X82.800Y142.800
G1X127.200
G1Y172.200
G1X82.800
G1Y142.800
G1X80.400Y140.400
G1X129.600
G1Y174.600
G1X80.400
G1Y140.400
G1X78.000Y138.000
G1X132.000
G1Y177.000
G1X78.000
G1Y138.000
G1X80.400Y140.400
G1X82.800Y142.800
G1X85.200Y145.200
G1X87.600Y147.600
G1X90.000Y150.000
G1X92.400Y152.400
G1X94.800Y154.800
G1X97.200Y157.200
G1Z-4.650F400.0
G1X112.800F1200.0
G1Y157.800
G1X97.200
G1Y157.200
G1X94.800Y154.800
G1X115.200
G1Y160.200
G1X94.800
G1Y154.800
G1X92.400Y152.400
G1X117.600
G1Y162.600
G1X92.400
G1Y152.400
G1X90.000Y150.000
G1X120.000
G1Y165.000
G1X90.000
G1Y150.000
G1X87.600Y147.600
G1X122.400
G1Y167.400
G1X87.600
G1Y147.600
G1X85.200Y145.200
G1X124.800
G1Y169.800
G1X85.200
G1Y145.200
G1X82.800Y142.800
G1X127.200
G1Y172.200
G1X82.800
G1Y142.800
G1X80.400Y140.400
G1X129.600
G1Y174.600
G1X80.400
G1Y140.400
G1X78.000Y138.000
G1X132.000
G1Y177.000
G1X78.000
G1Y138.000
G1X80.400Y140.400
G1X82.800Y142.800
G1X85.200Y145.200
G1X87.600Y147.600
G1X90.000Y150.000
G1X92.400Y152.400
G1X94.800Y154.800
G1X97.200Y157.200
G1Z-6.200F400.0
G1X112.800F1200.0
G1Y157.800
G1X97.200
G1Y157.200
G1X94.800Y154.800
G1X115.200
G1Y160.200
G1X94.800
G1Y154.800
G1X92.400Y152.400
G1X117.600
G1Y162.600
G1X92.400
G1Y152.400
G1X90.000Y150.000
G1X120.000
G1Y165.000
G1X90.000
G1Y150.000
G1X87.600Y147.600
G1X122.400
G1Y167.400
G1X87.600
G1Y147.600
G1X85.200Y145.200
G1X124.800
G1Y169.800
G1X85.200
G1Y145.200
G1X82.800Y142.800
G1X127.200
G1Y172.200
G1X82.800
G1Y142.800
G1X80.400Y140.400
G1X129.600
G1Y174.600
G1X80.400
G1Y140.400
G1X78.000Y138.000
G1X132.000
G1Y177.000
G1X78.000
G1Y138.000
G0Z5.080
G0X45.000Y45.500Z5.080
G1Z-1.550F400.0
G3X44.500Y45.000I0.000J-0.500F1200.0
G3X45.000Y44.500I0.500J0.000
G3X45.500Y45.000I0.000J0.500
G3X45.000Y45.500I-0.500J0.000
G1Z-3.100F400.0
G3X44.500Y45.000I0.000J-0.500F1200.0
G3X45.000Y44.500I0.500J0.000
G3X45.500Y45.000I0.000J0.500
G3X45.000Y45.500I-0.500J0.000
G1Z-4.650F400.0
G3X44.500Y45.000I0.000J-0.500F1200.0
G3X45.000Y44.500I0.500J0.000
G3X45.500Y45.000I0.000J0.500
G3X45.000Y45.500I-0.500J0.000
G1Z-6.200F400.0
G3X44.500Y45.000I0.000J-0.500F1200.0
G3X45.000Y44.500I0.500J0.000
G3X45.500Y45.000I0.000J0.500
G3X45.000Y45.500I-0.500J0.000
G0Z5.080
G0Y85.500
G1Z-1.550F400.0
G3X44.500Y85.000I0.000J-0.500F1200.0
G3X45.000Y84.500I0.500J0.000
G3X45.500Y85.000I0.000J0.500
G3X45.000Y85.500I-0.500J0.000
G1Z-3.100F400.0
G3X44.500Y85.000I0.000J-0.500F1200.0
G3X45.000Y84.500I0.500J0.000
G3X45.500Y85.000I0.000J0.500
G3X45.000Y85.500I-0.500J0.000
G1Z-4.650F400.0
G3X44.500Y85.000I0.000J-0.500F1200.0
G3X45.000Y84.500I0.500J0.000
G3X45.500Y85.000I0.000J0.500
G3X45.000Y85.500I-0.500J0.000
G1Z-6.200F400.0
G3X44.500Y85.000I0.000J-0.500F1200.0
G3X45.000Y84.500I0.500J0.000
G3X45.500Y85.000I0.000J0.500
G3X45.000Y85.500I-0.500J0.000
G0Z5.080
G0X85.000
G1Z-1.550F400.0
G3X84.500Y85.000I0.000J-0.500F1200.0
G3X85.000Y84.500I0.500J0.000
G3X85.500Y85.000I0.000J0.500
G3X85.000Y85.500I-0.500J0.000
G1Z-3.100F400.0
G3X84.500Y85.000I0.000J-0.500F1200.0
G3X85.000Y84.500I0.500J0.000
G3X85.500Y85.000I0.000J0.500
G3X85.000Y85.500I-0.500J0.000
G1Z-4.650F400.0
G3X84.500Y85.000I0.000J-0.500F1200.0
G3X85.000Y84.500I0.500J0.000
G3X85.500Y85.000I0.000J0.500
G3X85.000Y85.500I-0.500J0.000
G1Z-6.200F400.0
G3X84.500Y85.000I0.000J-0.500F1200.0
G3X85.000Y84.500I0.500J0.000
G3X85.500Y85.000I0.000J0.500
G3X85.000Y85.500I-0.500J0.000
G0Z5.080
G0X82.000Y118.600
G1Z-1.550F400.0
G3X81.400Y118.000I0.000J-0.600F1200.0
G3X82.000Y117.400I0.600J0.000
G3X82.600Y118.000I0.000J0.600
G3X82.000Y118.600I-0.600J0.000
G1Y121.000
G3X79.000Y118.000I0.000J-3.000
G3X82.000Y115.000I3.000J0.000
G3X85.000Y118.000I0.000J3.000
G3X82.000Y121.000I-3.000J0.000
G1Y118.600
G1Z-3.100F400.0
G3X81.400Y118.000I0.000J-0.600F1200.0
G3X82.000Y117.400I0.600J0.000
G3X82.600Y118.000I0.000J0.600
G3X82.000Y118.600I-0.600J0.000
G1Y121.000
G3X79.000Y118.000I0.000J-3.000
G3X82.000Y115.000I3.000J0.000
G3X85.000Y118.000I0.000J3.000
G3X82.000Y121.000I-3.000J0.000
G1Y118.600
G1Z-4.650F400.0
G3X81.400Y118.000I0.000J-0.600F1200.0
G3X82.000Y117.400I0.600J0.000
G3X82.600Y118.000I0.000J0.600
G3X82.000Y118.600I-0.600J0.000
G1Y121.000
G3X79.000Y118.000I0.000J-3.000
G3X82.000Y115.000I3.000J0.000
G3X85.000Y118.000I0.000J3.000
G3X82.000Y121.000I-3.000J0.000
G1Y118.600
G1Z-6.200F400.0
G3X81.400Y118.000I0.000J-0.600F1200.0
G3X82.000Y117.400I0.600J0.000
G3X82.600Y118.000I0.000J0.600
G3X82.000Y118.600I-0.600J0.000
G1Y121.000
G3X79.000Y118.000I0.000J-3.000
G3X82.000Y115.000I3.000J0.000
G3X85.000Y118.000I0.000J3.000
G3X82.000Y121.000I-3.000J0.000
G0Z5.080
G0X105.000Y118.600
G1Z-1.550F400.0
G3X104.400Y118.000I0.000J-0.600F1200.0
G3X105.000Y117.400I0.600J0.000
G3X105.600Y118.000I0.000J0.600
G3X105.000Y118.600I-0.600J0.000
G1Y121.000
G3X102.000Y118.000I0.000J-3.000
G3X105.000Y115.000I3.000J0.000
G3X108.000Y118.000I0.000J3.000
G3X105.000Y121.000I-3.000J0.000
G1Y118.600
G1Z-3.100F400.0
G3X104.400Y118.000I0.000J-0.600F1200.0
G3X105.000Y117.400I0.600J0.000
G3X105.600Y118.000I0.000J0.600
G3X105.000Y118.600I-0.600J0.000
G1Y121.000
G3X102.000Y118.000I0.000J-3.000
G3X105.000Y115.000I3.000J0.000
G3X108.000Y118.000I0.000J3.000
G3X105.000Y121.000I-3.000J0.000
G1Y118.600
G1Z-4.650F400.0
G3X104.400Y118.000I0.000J-0.600F1200.0
G3X105.000Y117.400I0.600J0.000
G3X105.600Y118.000I0.000J0.600
G3X105.000Y118.600I-0.600J0.000
G1Y121.000
G3X102.000Y118.000I0.000J-3.000
G3X105.000Y115.000I3.000J0.000
G3X108.000Y118.000I0.000J3.000
G3X105.000Y121.000I-3.000J0.000
G1Y118.600
G1Z-6.200F400.0
G3X104.400Y118.000I0.000J-0.600F1200.0
G3X105.000Y117.400I0.600J0.000
G3X105.600Y118.000I0.000J0.600
G3X105.000Y118.600I-0.600J0.000
G1Y121.000
G3X102.000Y118.000I0.000J-3.000
G3X105.000Y115.000I3.000J0.000
G3X108.000Y118.000I0.000J3.000
G3X105.000Y121.000I-3.000J0.000
G0Z5.080
G0X128.000Y118.600
G1Z-1.550F400.0
G3X127.400Y118.000I0.000J-0.600F1200.0
G3X128.000Y117.400I0.600J0.000
G3X128.600Y118.000I0.000J0.600
G3X128.000Y118.600I-0.600J0.000
G1Y121.000
G3X125.000Y118.000I0.000J-3.000
G3X128.000Y115.000I3.000J0.000
G3X131.000Y118.000I0.000J3.000
G3X128.000Y121.000I-3.000J0.000
G1Y118.600
G1Z-3.100F400.0
G3X127.400Y118.000I0.000J-0.600F1200.0
G3X128.000Y117.400I0.600J0.000
G3X128.600Y118.000I0.000J0.600
G3X128.000Y118.600I-0.600J0.000
G1Y121.000
G3X125.000Y118.000I0.000J-3.000
G3X128.000Y115.000I3.000J0.000
G3X131.000Y118.000I0.000J3.000
G3X128.000Y121.000I-3.000J0.000
G1Y118.600
G1Z-4.650F400.0
G3X127.400Y118.000I0.000J-0.600F1200.0
G3X128.000Y117.400I0.600J0.000
G3X128.600Y118.000I0.000J0.600
G3X128.000Y118.600I-0.600J0.000
G1Y121.000
G3X125.000Y118.000I0.000J-3.000
G3X128.000Y115.000I3.000J0.000
G3X131.000Y118.000I0.000J3.000
G3X128.000Y121.000I-3.000J0.000
G1Y118.600
G1Z-6.200F400.0
G3X127.400Y118.000I0.000J-0.600F1200.0
G3X128.000Y117.400I0.600J0.000
G3X128.600Y118.000I0.000J0.600
G3X128.000Y118.600I-0.600J0.000
G1Y121.000
G3X125.000Y118.000I0.000J-3.000
G3X128.000Y115.000I3.000J0.000
G3X131.000Y118.000I0.000J3.000
G3X128.000Y121.000I-3.000J0.000
G0Z5.080
G0X125.000Y85.500
G1Z-1.550F400.0
G3X124.500Y85.000I0.000J-0.500F1200.0
G3X125.000Y84.500I0.500J0.000
G3X125.500Y85.000I0.000J0.500
G3X125.000Y85.500I-0.500J0.000
G1Z-3.100F400.0
G3X124.500Y85.000I0.000J-0.500F1200.0
G3X125.000Y84.500I0.500J0.000
G3X125.500Y85.000I0.000J0.500
G3X125.000Y85.500I-0.500J0.000
G1Z-4.650F400.0
G3X124.500Y85.000I0.000J-0.500F1200.0
G3X125.000Y84.500I0.500J0.000
G3X125.500Y85.000I0.000J0.500
G3X125.000Y85.500I-0.500J0.000
G1Z-6.200F400.0
G3X124.500Y85.000I0.000J-0.500F1200.0
G3X125.000Y84.500I0.500J0.000
G3X125.500Y85.000I0.000J0.500
G3X125.000Y85.500I-0.500J0.000
G0Z5.080
G0Y45.500
G1Z-1.550F400.0
G3X124.500Y45.000I0.000J-0.500F1200.0
G3X125.000Y44.500I0.500J0.000
G3X125.500Y45.000I0.000J0.500
G3X125.000Y45.500I-0.500J0.000
G1Z-3.100F400.0
G3X124.500Y45.000I0.000J-0.500F1200.0
G3X125.000Y44.500I0.500J0.000
G3X125.500Y45.000I0.000J0.500
G3X125.000Y45.500I-0.500J0.000
G1Z-4.650F400.0
G3X124.500Y45.000I0.000J-0.500F1200.0
G3X125.000Y44.500I0.500J0.000
G3X125.500Y45.000I0.000J0.500
G3X125.000Y45.500I-0.500J0.000
G1Z-6.200F400.0
G3X124.500Y45.000I0.000J-0.500F1200.0
G3X125.000Y44.500I0.500J0.000
G3X125.500Y45.000I0.000J0.500
G3X125.000Y45.500I-0.500J0.000
G0Z5.080
G0X85.000
G1Z-1.550F400.0
G3X84.500Y45.000I0.000J-0.500F1200.0
G3X85.000Y44.500I0.500J0.000
G3X85.500Y45.000I0.000J0.500
G3X85.000Y45.500I-0.500J0.000
G1Z-3.100F400.0
G3X84.500Y45.000I0.000J-0.500F1200.0
G3X85.000Y44.500I0.500J0.000
G3X85.500Y45.000I0.000J0.500
G3X85.000Y45.500I-0.500J0.000
G1Z-4.650F400.0
G3X84.500Y45.000I0.000J-0.500F1200.0
G3X85.000Y44.500I0.500J0.000
G3X85.500Y45.000I0.000J0.500
G3X85.000Y45.500I-0.500J0.000
G1Z-6.200F400.0
G3X84.500Y45.000I0.000J-0.500F1200.0
G3X85.000Y44.500I0.500J0.000
G3X85.500Y45.000I0.000J0.500
G3X85.000Y45.500I-0.500J0.000
G0Z5.080
G0X165.000
G1Z-1.550F400.0
G3X164.500Y45.000I0.000J-0.500F1200.0
G3X165.000Y44.500I0.500J0.000
G3X165.500Y45.000I0.000J0.500
G3X165.000Y45.500I-0.500J0.000
G1Z-3.100F400.0
G3X164.500Y45.000I0.000J-0.500F1200.0
G3X165.000Y44.500I0.500J0.000
G3X165.500Y45.000I0.000J0.500
G3X165.000Y45.500I-0.500J0.000
G1Z-4.650F400.0
G3X164.500Y45.000I0.000J-0.500F1200.0
G3X165.000Y44.500I0.500J0.000
G3X165.500Y45.000I0.000J0.500
G3X165.000Y45.500I-0.500J0.000
G1Z-6.200F400.0
G3X164.500Y45.000I0.000J-0.500F1200.0
G3X165.000Y44.500I0.500J0.000
G3X165.500Y45.000I0.000J0.500
G3X165.000Y45.500I-0.500J0.000
G0Z5.080
G0Y85.500
G1Z-1.550F400.0
G3X164.500Y85.000I0.000J-0.500F1200.0
G3X165.000Y84.500I0.500J0.000
G3X165.500Y85.000I0.000J0.500
G3X165.000Y85.500I-0.500J0.000
G1Z-3.100F400.0
G3X164.500Y85.000I0.000J-0.500F1200.0
G3X165.000Y84.500I0.500J0.000
G3X165.500Y85.000I0.000J0.500
G3X165.000Y85.500I-0.500J0.000
G1Z-4.650F400.0
G3X164.500Y85.000I0.000J-0.500F1200.0
G3X165.000Y84.500I0.500J0.000
G3X165.500Y85.000I0.000J0.500
G3X165.000Y85.500I-0.500J0.000
G1Z-6.200F400.0
G3X164.500Y85.000I0.000J-0.500F1200.0
G3X165.000Y84.500I0.500J0.000
G3X165.500Y85.000I0.000J0.500
G3X165.000Y85.500I-0.500J0.000
G0Z5.080
G0X163.500Y141.100
G1Z-1.550F400.0
G3X162.900Y140.500I0.000J-0.600F1200.0
G3X163.500Y139.900I0.600J0.000
G3X164.100Y140.500I0.000J0.600
G3X163.500Y141.100I-0.600J0.000
G1Y143.500
G3X160.500Y140.500I0.000J-3.000
G3X163.500Y137.500I3.000J0.000
G3X166.500Y140.500I0.000J3.000
G3X163.500Y143.500I-3.000J0.000
G1Y141.100
G1Z-3.100F400.0
G3X162.900Y140.500I0.000J-0.600F1200.0
G3X163.500Y139.900I0.600J0.000
G3X164.100Y140.500I0.000J0.600
G3X163.500Y141.100I-0.600J0.000
G1Y143.500
G3X160.500Y140.500I0.000J-3.000
G3X163.500Y137.500I3.000J0.000
G3X166.500Y140.500I0.000J3.000
G3X163.500Y143.500I-3.000J0.000
G1Y141.100
G1Z-4.650F400.0
G3X162.900Y140.500I0.000J-0.600F1200.0
G3X163.500Y139.900I0.600J0.000
G3X164.100Y140.500I0.000J0.600
G3X163.500Y141.100I-0.600J0.000
G1Y143.500
G3X160.500Y140.500I0.000J-3.000
G3X163.500Y137.500I3.000J0.000
G3X166.500Y140.500I0.000J3.000
G3X163.500Y143.500I-3.000J0.000
G1Y141.100
G1Z-6.200F400.0
G3X162.900Y140.500I0.000J-0.600F1200.0
G3X163.500Y139.900I0.600J0.000
G3X164.100Y140.500I0.000J0.600
G3X163.500Y141.100I-0.600J0.000
G1Y143.500
G3X160.500Y140.500I0.000J-3.000
G3X163.500Y137.500I3.000J0.000
G3X166.500Y140.500I0.000J3.000
G3X163.500Y143.500I-3.000J0.000
G0Z5.080
G0Y158.100
G1Z-1.550F400.0
G3X162.900Y157.500I0.000J-0.600F1200.0
G3X163.500Y156.900I0.600J0.000
G3X164.100Y157.500I0.000J0.600
G3X163.500Y158.100I-0.600J0.000
G1Y160.500
G3X160.500Y157.500I0.000J-3.000
G3X163.500Y154.500I3.000J0.000
G3X166.500Y157.500I0.000J3.000
G3X163.500Y160.500I-3.000J0.000
G1Y158.100
G1Z-3.100F400.0
G3X162.900Y157.500I0.000J-0.600F1200.0
G3X163.500Y156.900I0.600J0.000
G3X164.100Y157.500I0.000J0.600
G3X163.500Y158.100I-0.600J0.000
G1Y160.500
G3X160.500Y157.500I0.000J-3.000
G3X163.500Y154.500I3.000J0.000
G3X166.500Y157.500I0.000J3.000
G3X163.500Y160.500I-3.000J0.000
G1Y158.100
G1Z-4.650F400.0
G3X162.900Y157.500I0.000J-0.600F1200.0
G3X163.500Y156.900I0.600J0.000
G3X164.100Y157.500I0.000J0.600
G3X163.500Y158.100I-0.600J0.000
G1Y160.500
G3X160.500Y157.500I0.000J-3.000
G3X163.500Y154.500I3.000J0.000
G3X166.500Y157.500I0.000J3.000
G3X163.500Y160.500I-3.000J0.000
G1Y158.100
G1Z-6.200F400.0
G3X162.900Y157.500I0.000J-0.600F1200.0
G3X163.500Y156.900I0.600J0.000
G3X164.100Y157.500I0.000J0.600
G3X163.500Y158.100I-0.600J0.000
G1Y160.500
G3X160.500Y157.500I0.000J-3.000
G3X163.500Y154.500I3.000J0.000
G3X166.500Y157.500I0.000J3.000
G3X163.500Y160.500I-3.000J0.000
G0Z5.080
G0Y175.100
G1Z-1.550F400.0
G3X162.900Y174.500I0.000J-0.600F1200.0
G3X163.500Y173.900I0.600J0.000
G3X164.100Y174.500I0.000J0.600
G3X163.500Y175.100I-0.600J0.000
G1Y177.500
G3X160.500Y174.500I0.000J-3.000
G3X163.500Y171.500I3.000J0.000
G3X166.500Y174.500I0.000J3.000
G3X163.500Y177.500I-3.000J0.000
G1Y175.100
G1Z-3.100F400.0
G3X162.900Y174.500I0.000J-0.600F1200.0
G3X163.500Y173.900I0.600J0.000
G3X164.100Y174.500I0.000J0.600
G3X163.500Y175.100I-0.600J0.000
G1Y177.500
G3X160.500Y174.500I0.000J-3.000
G3X163.500Y171.500I3.000J0.000
G3X166.500Y174.500I0.000J3.000
G3X163.500Y177.500I-3.000J0.000
G1Y175.100
G1Z-4.650F400.0
G3X162.900Y174.500I0.000J-0.600F1200.0
G3X163.500Y173.900I0.600J0.000
G3X164.100Y174.500I0.000J0.600
G3X163.500Y175.100I-0.600J0.000
G1Y177.500
G3X160.500Y174.500I0.000J-3.000
G3X163.500Y171.500I3.000J0.000
G3X166.500Y174.500I0.000J3.000
G3X163.500Y177.500I-3.000J0.000
G1Y175.100
G1Z-6.200F400.0
G3X162.900Y174.500I0.000J-0.600F1200.0
G3X163.500Y173.900I0.600J0.000
G3X164.100Y174.500I0.000J0.600
G3X163.500Y175.100I-0.600J0.000
G1Y177.500
G3X160.500Y174.500I0.000J-3.000
G3X163.500Y171.500I3.000J0.000
G3X166.500Y174.500I0.000J3.000
G3X163.500Y177.500I-3.000J0.000
G0Z5.080
G0X45.000Y173.000
G1Z-1.550F400.0
G3X44.500Y172.500I0.000J-0.500F1200.0
G3X45.000Y172.000I0.500J0.000
G3X45.500Y172.500I0.000J0.500
G3X45.000Y173.000I-0.500J0.000
G1Z-3.100F400.0
G3X44.500Y172.500I0.000J-0.500F1200.0
G3X45.000Y172.000I0.500J0.000
G3X45.500Y172.500I0.000J0.500
G3X45.000Y173.000I-0.500J0.000
G1Z-4.650F400.0
G3X44.500Y172.500I0.000J-0.500F1200.0
G3X45.000Y172.000I0.500J0.000
G3X45.500Y172.500I0.000J0.500
G3X45.000Y173.000I-0.500J0.000
G1Z-6.200F400.0
G3X44.500Y172.500I0.000J-0.500F1200.0
G3X45.000Y172.000I0.500J0.000
G3X45.500Y172.500I0.000J0.500
G3X45.000Y173.000I-0.500J0.000
G0Z5.080
G0Y144.700
G1Z-1.550F400.0
G3X42.800Y142.500I0.000J-2.200F1200.0
G3X45.000Y140.300I2.200J0.000
G3X47.200Y142.500I0.000J2.200
G3X45.000Y144.700I-2.200J0.000
G1Y147.100
G3X40.400Y142.500I0.000J-4.600
G3X45.000Y137.900I4.600J0.000
G3X49.600Y142.500I0.000J4.600
G3X45.000Y147.100I-4.600J0.000
G1Y149.500
G3X38.000Y142.500I0.000J-7.000
G3X45.000Y135.500I7.000J0.000
G3X52.000Y142.500I0.000J7.000
G3X45.000Y149.500I-7.000J0.000
G1Y147.100
G1Y144.700
G1Z-3.100F400.0
G3X42.800Y142.500I0.000J-2.200F1200.0
G3X45.000Y140.300I2.200J0.000
G3X47.200Y142.500I0.000J2.200
G3X45.000Y144.700I-2.200J0.000
G1Y147.100
G3X40.400Y142.500I0.000J-4.600
G3X45.000Y137.900I4.600J0.000
G3X49.600Y142.500I0.000J4.600
G3X45.000Y147.100I-4.600J0.000
G1Y149.500
G3X38.000Y142.500I0.000J-7.000
G3X45.000Y135.500I7.000J0.000
G3X52.000Y142.500I0.000J7.000
G3X45.000Y149.500I-7.000J0.000
G1Y147.100
G1Y144.700
G1Z-4.650F400.0
G3X42.800Y142.500I0.000J-2.200F1200.0
G3X45.000Y140.300I2.200J0.000
G3X47.200Y142.500I0.000J2.200
G3X45.000Y144.700I-2.200J0.000
G1Y147.100
G3X40.400Y142.500I0.000J-4.600
G3X45.000Y137.900I4.600J0.000
G3X49.600Y142.500I0.000J4.600
G3X45.000Y147.100I-4.600J0.000
G1Y149.500
G3X38.000Y142.500I0.000J-7.000
G3X45.000Y135.500I7.000J0.000
G3X52.000Y142.500I0.000J7.000
G3X45.000Y149.500I-7.000J0.000
G1Y147.100
G1Y144.700
G1Z-6.200F400.0
G3X42.800Y142.500I0.000J-2.200F1200.0
G3X45.000Y140.300I2.200J0.000
G3X47.200Y142.500I0.000J2.200
G3X45.000Y144.700I-2.200J0.000
G1Y147.100
G3X40.400Y142.500I0.000J-4.600
G3X45.000Y137.900I4.600J0.000
G3X49.600Y142.500I0.000J4.600
G3X45.000Y147.100I-4.600J0.000
G1Y149.500
G3X38.000Y142.500I0.000J-7.000
G3X45.000Y135.500I7.000J0.000
G3X52.000Y142.500I0.000J7.000
G3X45.000Y149.500I-7.000J0.000
G0Z5.080
M5
G0Z20.320
G0X0.000Y0.000
M2
