(VECTRIC POST REVISION)
(2410E23C85915A17A0D6BB4BFA509A68)
T1
G17
G21
G90
G0Z20.320
G0X0.000Y0.000
S18000M3
G0X17.500Y17.000
G0Z5.080
G1Z-0.689F300.0
G3X17.000Y17.500I-0.500J0.000F1000.0
G3X16.500Y17.000I0.000J-0.500
G3X17.000Y16.500I0.500J0.000
G3X17.500Y17.000I0.000J0.500
G1Z-1.378F300.0
G3X17.000Y17.500I-0.500J0.000F1000.0
G3X16.500Y17.000I0.000J-0.500
G3X17.000Y16.500I0.500J0.000
G3X17.500Y17.000I0.000J0.500
G1Z-2.067F300.0
G3X17.000Y17.500I-0.500J0.000F1000.0
G3X16.500Y17.000I0.000J-0.500
G3X17.000Y16.500I0.500J0.000
G3X17.500Y17.000I0.000J0.500
G1Z-2.756F300.0
G3X17.000Y17.500I-0.500J0.000F1000.0
G3X16.500Y17.000I0.000J-0.500
G3X17.000Y16.500I0.500J0.000
G3X17.500Y17.000I0.000J0.500
G1Z-3.444F300.0
G3X17.000Y17.500I-0.500J0.000F1000.0
G3X16.500Y17.000I0.000J-0.500
G3X17.000Y16.500I0.500J0.000
G3X17.500Y17.000I0.000J0.500
G1Z-4.133F300.0
G3X17.000Y17.500I-0.500J0.000F1000.0
G3X16.500Y17.000I0.000J-0.500
G3X17.000Y16.500I0.500J0.000
G3X17.500Y17.000I0.000J0.500
G1Z-4.822F300.0
G3X17.000Y17.500I-0.500J0.000F1000.0
G3X16.500Y17.000I0.000J-0.500
G3X17.000Y16.500I0.500J0.000
G3X17.500Y17.000I0.000J0.500
G1Z-5.511F300.0
G3X17.000Y17.500I-0.500J0.000F1000.0
G3X16.500Y17.000I0.000J-0.500
G3X17.000Y16.500I0.500J0.000
G3X17.500Y17.000I0.000J0.500
G1Z-6.200F300.0
G3X17.000Y17.500I-0.500J0.000F1000.0
G3X16.500Y17.000I0.000J-0.500
G3X17.000Y16.500I0.500J0.000
G3X17.500Y17.000I0.000J0.500
G0Z5.080
G0Y193.000
G1Z-0.689F300.0
G3X17.000Y193.500I-0.500J0.000F1000.0
G3X16.500Y193.000I0.000J-0.500
G3X17.000Y192.500I0.500J0.000
G3X17.500Y193.000I0.000J0.500
G1Z-1.378F300.0
G3X17.000Y193.500I-0.500J0.000F1000.0
G3X16.500Y193.000I0.000J-0.500
G3X17.000Y192.500I0.500J0.000
G3X17.500Y193.000I0.000J0.500
G1Z-2.067F300.0
G3X17.000Y193.500I-0.500J0.000F1000.0
G3X16.500Y193.000I0.000J-0.500
G3X17.000Y192.500I0.500J0.000
G3X17.500Y193.000I0.000J0.500
G1Z-2.756F300.0
G3X17.000Y193.500I-0.500J0.000F1000.0
G3X16.500Y193.000I0.000J-0.500
G3X17.000Y192.500I0.500J0.000
G3X17.500Y193.000I0.000J0.500
G1Z-3.444F300.0
G3X17.000Y193.500I-0.500J0.000F1000.0
G3X16.500Y193.000I0.000J-0.500
G3X17.000Y192.500I0.500J0.000
G3X17.500Y193.000I0.000J0.500
G1Z-4.133F300.0
G3X17.000Y193.500I-0.500J0.000F1000.0
G3X16.500Y193.000I0.000J-0.500
G3X17.000Y192.500I0.500J0.000
G3X17.500Y193.000I0.000J0.500
G1Z-4.822F300.0
G3X17.000Y193.500I-0.500J0.000F1000.0
G3X16.500Y193.000I0.000J-0.500
G3X17.000Y192.500I0.500J0.000
G3X17.500Y193.000I0.000J0.500
G1Z-5.511F300.0
G3X17.000Y193.500I-0.500J0.000F1000.0
G3X16.500Y193.000I0.000J-0.500
G3X17.000Y192.500I0.500J0.000
G3X17.500Y193.000I0.000J0.500
G1Z-6.200F300.0
G3X17.000Y193.500I-0.500J0.000F1000.0
G3X16.500Y193.000I0.000J-0.500
G3X17.000Y192.500I0.500J0.000
G3X17.500Y193.000I0.000J0.500
G0Z5.080
G0X193.000Y192.500
G1Z-0.689F300.0
G3X193.500Y193.000I0.000J0.500F1000.0
G3X193.000Y193.500I-0.500J0.000
G3X192.500Y193.000I0.000J-0.500
G3X193.000Y192.500I0.500J0.000
G1Z-1.378F300.0
G3X193.500Y193.000I0.000J0.500F1000.0
G3X193.000Y193.500I-0.500J0.000
G3X192.500Y193.000I0.000J-0.500
G3X193.000Y192.500I0.500J0.000
G1Z-2.067F300.0
G3X193.500Y193.000I0.000J0.500F1000.0
G3X193.000Y193.500I-0.500J0.000
G3X192.500Y193.000I0.000J-0.500
G3X193.000Y192.500I0.500J0.000
G1Z-2.756F300.0
G3X193.500Y193.000I0.000J0.500F1000.0
G3X193.000Y193.500I-0.500J0.000
G3X192.500Y193.000I0.000J-0.500
G3X193.000Y192.500I0.500J0.000
G1Z-3.444F300.0
G3X193.500Y193.000I0.000J0.500F1000.0
G3X193.000Y193.500I-0.500J0.000
G3X192.500Y193.000I0.000J-0.500
G3X193.000Y192.500I0.500J0.000
G1Z-4.133F300.0
G3X193.500Y193.000I0.000J0.500F1000.0
G3X193.000Y193.500I-0.500J0.000
G3X192.500Y193.000I0.000J-0.500
G3X193.000Y192.500I0.500J0.000
G1Z-4.822F300.0
G3X193.500Y193.000I0.000J0.500F1000.0
G3X193.000Y193.500I-0.500J0.000
G3X192.500Y193.000I0.000J-0.500
G3X193.000Y192.500I0.500J0.000
G1Z-5.511F300.0
G3X193.500Y193.000I0.000J0.500F1000.0
G3X193.000Y193.500I-0.500J0.000
G3X192.500Y193.000I0.000J-0.500
G3X193.000Y192.500I0.500J0.000
G1Z-6.200F300.0
G3X193.500Y193.000I0.000J0.500F1000.0
G3X193.000Y193.500I-0.500J0.000
G3X192.500Y193.000I0.000J-0.500
G3X193.000Y192.500I0.500J0.000
G0Z5.080
G0X193.500Y17.000
G1Z-0.689F300.0
G3X193.000Y17.500I-0.500J0.000F1000.0
G3X192.500Y17.000I0.000J-0.500
G3X193.000Y16.500I0.500J0.000
G3X193.500Y17.000I0.000J0.500
G1Z-1.378F300.0
G3X193.000Y17.500I-0.500J0.000F1000.0
G3X192.500Y17.000I0.000J-0.500
G3X193.000Y16.500I0.500J0.000
G3X193.500Y17.000I0.000J0.500
G1Z-2.067F300.0
G3X193.000Y17.500I-0.500J0.000F1000.0
G3X192.500Y17.000I0.000J-0.500
G3X193.000Y16.500I0.500J0.000
G3X193.500Y17.000I0.000J0.500
G1Z-2.756F300.0
G3X193.000Y17.500I-0.500J0.000F1000.0
G3X192.500Y17.000I0.000J-0.500
G3X193.000Y16.500I0.500J0.000
G3X193.500Y17.000I0.000J0.500
G1Z-3.444F300.0
G3X193.000Y17.500I-0.500J0.000F1000.0
G3X192.500Y17.000I0.000J-0.500
G3X193.000Y16.500I0.500J0.000
G3X193.500Y17.000I0.000J0.500
G1Z-4.133F300.0
G3X193.000Y17.500I-0.500J0.000F1000.0
G3X192.500Y17.000I0.000J-0.500
G3X193.000Y16.500I0.500J0.000
G3X193.500Y17.000I0.000J0.500
G1Z-4.822F300.0
G3X193.000Y17.500I-0.500J0.000F1000.0
G3X192.500Y17.000I0.000J-0.500
G3X193.000Y16.500I0.500J0.000
G3X193.500Y17.000I0.000J0.500
G1Z-5.511F300.0
G3X193.000Y17.500I-0.500J0.000F1000.0
G3X192.500Y17.000I0.000J-0.500
G3X193.000Y16.500I0.500J0.000
G3X193.500Y17.000I0.000J0.500
G1Z-6.200F300.0
G3X193.000Y17.500I-0.500J0.000F1000.0
G3X192.500Y17.000I0.000J-0.500
G3X193.000Y16.500I0.500J0.000
G3X193.500Y17.000I0.000J0.500
G0Z5.080
G0X16.000Y8.500Z5.080
G1Z-0.689F300.0
G2X8.500Y16.000I0.000J7.500F1000.0
G1Y51.555
G1Y59.055
G1Y66.555
G1Y145.267
G1Y152.767
G1Y160.267
G1Y194.000
G2X16.000Y201.500I7.500J0.000
G1X51.555
G1X59.055
G1X66.555
G1X145.267
G1X152.767
G1X160.267
G1X194.000
G2X201.500Y194.000I0.000J-7.500
G1Y158.445
G1Y150.945
G1Y143.445
G1Y64.733
G1Y57.233
G1Y49.733
G1Y16.000
G2X194.000Y8.500I-7.500J0.000
G1X158.445
G1X150.945
G1X143.445
G1X64.733
G1X57.233
G1X49.733
G1X16.000
G1Z-1.378F300.0
G2X8.500Y16.000I0.000J7.500F1000.0
G1Y51.555
G1Y59.055
G1Y66.555
G1Y145.267
G1Y152.767
G1Y160.267
G1Y194.000
G2X16.000Y201.500I7.500J0.000
G1X51.555
G1X59.055
G1X66.555
G1X145.267
G1X152.767
G1X160.267
G1X194.000
G2X201.500Y194.000I0.000J-7.500
G1Y158.445
G1Y150.945
G1Y143.445
G1Y64.733
G1Y57.233
G1Y49.733
G1Y16.000
G2X194.000Y8.500I-7.500J0.000
G1X158.445
G1X150.945
G1X143.445
G1X64.733
G1X57.233
G1X49.733
G1X16.000
G1Z-2.067F300.0
G2X8.500Y16.000I0.000J7.500F1000.0
G1Y51.555
G1Y59.055
G1Y66.555
G1Y145.267
G1Y152.767
G1Y160.267
G1Y194.000
G2X16.000Y201.500I7.500J0.000
G1X51.555
G1X59.055
G1X66.555
G1X145.267
G1X152.767
G1X160.267
G1X194.000
G2X201.500Y194.000I0.000J-7.500
G1Y158.445
G1Y150.945
G1Y143.445
G1Y64.733
G1Y57.233
G1Y49.733
G1Y16.000
G2X194.000Y8.500I-7.500J0.000
G1X158.445
G1X150.945
G1X143.445
G1X64.733
G1X57.233
G1X49.733
G1X16.000
G1Z-2.756F300.0
G2X8.500Y16.000I0.000J7.500F1000.0
G1Y51.555
G1Y59.055
G1Y66.555
G1Y145.267
G1Y152.767
G1Y160.267
G1Y194.000
G2X16.000Y201.500I7.500J0.000
G1X51.555
G1X59.055
G1X66.555
G1X145.267
G1X152.767
G1X160.267
G1X194.000
G2X201.500Y194.000I0.000J-7.500
G1Y158.445
G1Y150.945
G1Y143.445
G1Y64.733
G1Y57.233
G1Y49.733
G1Y16.000
G2X194.000Y8.500I-7.500J0.000
G1X158.445
G1X150.945
G1X143.445
G1X64.733
G1X57.233
G1X49.733
G1X16.000
G1Z-3.444F300.0
G2X8.500Y16.000I0.000J7.500F1000.0
G1Y51.555
G1Y59.055Z-3.200
G1Y66.555Z-3.444
G1Y145.267
G1Y152.767Z-3.200
G1Y160.267Z-3.444
G1Y194.000
G2X16.000Y201.500I7.500J0.000
G1X51.555
G1X59.055Z-3.200
G1X66.555Z-3.444
G1X145.267
G1X152.767Z-3.200
G1X160.267Z-3.444
G1X194.000
G2X201.500Y194.000I0.000J-7.500
G1Y158.445
G1Y150.945Z-3.200
G1Y143.445Z-3.444
G1Y64.733
G1Y57.233Z-3.200
G1Y49.733Z-3.444
G1Y16.000
G2X194.000Y8.500I-7.500J0.000
G1X158.445
G1X150.945Z-3.200
G1X143.445Z-3.444
G1X64.733
G1X57.233Z-3.200
G1X49.733Z-3.444
G1X16.000
G1Z-4.133F300.0
G2X8.500Y16.000I0.000J7.500F1000.0
G1Y51.555
G1Y59.055Z-3.200
G1Y66.555Z-4.133
G1Y145.267
G1Y152.767Z-3.200
G1Y160.267Z-4.133
G1Y194.000
G2X16.000Y201.500I7.500J0.000
G1X51.555
G1X59.055Z-3.200
G1X66.555Z-4.133
G1X145.267
G1X152.767Z-3.200
G1X160.267Z-4.133
G1X194.000
G2X201.500Y194.000I0.000J-7.500
G1Y158.445
G1Y150.945Z-3.200
G1Y143.445Z-4.133
G1Y64.733
G1Y57.233Z-3.200
G1Y49.733Z-4.133
G1Y16.000
G2X194.000Y8.500I-7.500J0.000
G1X158.445
G1X150.945Z-3.200
G1X143.445Z-4.133
G1X64.733
G1X57.233Z-3.200
G1X49.733Z-4.133
G1X16.000
G1Z-4.822F300.0
G2X8.500Y16.000I0.000J7.500F1000.0
G1Y51.555
G1Y59.055Z-3.200
G1Y66.555Z-4.822
G1Y145.267
G1Y152.767Z-3.200
G1Y160.267Z-4.822
G1Y194.000
G2X16.000Y201.500I7.500J0.000
G1X51.555
G1X59.055Z-3.200
G1X66.555Z-4.822
G1X145.267
G1X152.767Z-3.200
G1X160.267Z-4.822
G1X194.000
G2X201.500Y194.000I0.000J-7.500
G1Y158.445
G1Y150.945Z-3.200
G1Y143.445Z-4.822
G1Y64.733
G1Y57.233Z-3.200
G1Y49.733Z-4.822
G1Y16.000
G2X194.000Y8.500I-7.500J0.000
G1X158.445
G1X150.945Z-3.200
G1X143.445Z-4.822
G1X64.733
G1X57.233Z-3.200
G1X49.733Z-4.822
G1X16.000
G1Z-5.511F300.0
G2X8.500Y16.000I0.000J7.500F1000.0
G1Y51.555
G1Y59.055Z-3.200
G1Y66.555Z-5.511
G1Y145.267
G1Y152.767Z-3.200
G1Y160.267Z-5.511
G1Y194.000
G2X16.000Y201.500I7.500J0.000
G1X51.555
G1X59.055Z-3.200
G1X66.555Z-5.511
G1X145.267
G1X152.767Z-3.200
G1X160.267Z-5.511
G1X194.000
G2X201.500Y194.000I0.000J-7.500
G1Y158.445
G1Y150.945Z-3.200
G1Y143.445Z-5.511
G1Y64.733
G1Y57.233Z-3.200
G1Y49.733Z-5.511
G1Y16.000
G2X194.000Y8.500I-7.500J0.000
G1X158.445
G1X150.945Z-3.200
G1X143.445Z-5.511
G1X64.733
G1X57.233Z-3.200
G1X49.733Z-5.511
G1X16.000
G1Z-6.200F300.0
G2X8.500Y16.000I0.000J7.500F1000.0
G1Y51.555
G1Y59.055Z-3.200
G1Y66.555Z-6.200
G1Y145.267
G1Y152.767Z-3.200
G1Y160.267Z-6.200
G1Y194.000
G2X16.000Y201.500I7.500J0.000
G1X51.555
G1X59.055Z-3.200
G1X66.555Z-6.200
G1X145.267
G1X152.767Z-3.200
G1X160.267Z-6.200
G1X194.000
G2X201.500Y194.000I0.000J-7.500
G1Y158.445
G1Y150.945Z-3.200
G1Y143.445Z-6.200
G1Y64.733
G1Y57.233Z-3.200
G1Y49.733Z-6.200
G1Y16.000
G2X194.000Y8.500I-7.500J0.000
G1X158.445
G1X150.945Z-3.200
G1X143.445Z-6.200
G1X64.733
G1X57.233Z-3.200
G1X49.733Z-6.200
G1X16.000
G0Z5.080
M5
G0Z20.320
G0X0.000Y0.000
M2
