(VECTRIC POST REVISION)
(2410E23C85915A17A0D6BB4BFA509A68)
T1
G17
G21
G90
G0Z20.320
G0X0.000Y0.000
S19000M3
G0X70.600Y-4.800
G0Z5.080
G1Z-2.000F320.0
G1X70.500Y-4.700F960.0
G1X55.500
G1X55.400Y-4.800
G1X55.500Y-4.900
G1X70.500
G1X70.600Y-4.800
G1X73.000
G3X70.500Y-2.300I-2.500J0.000
G1X55.500
G3X53.000Y-4.800I0.000J-2.500
G3X55.500Y-7.300I2.500J0.000
G1X70.500
G3X73.000Y-4.800I0.000J2.500
G1X70.600
G1Z-4.000F320.0
G1X70.500Y-4.700F960.0
G1X55.500
G1X55.400Y-4.800
G1X55.500Y-4.900
G1X70.500
G1X70.600Y-4.800
G1X73.000
G3X70.500Y-2.300I-2.500J0.000
G1X55.500
G3X53.000Y-4.800I0.000J-2.500
G3X55.500Y-7.300I2.500J0.000
G1X70.500
G3X73.000Y-4.800I0.000J2.500
G1X70.600
G1Z-6.000F320.0
G1X70.500Y-4.700F960.0
G1X55.500
G1X55.400Y-4.800
G1X55.500Y-4.900
G1X70.500
G1X70.600Y-4.800
G1X73.000
G3X70.500Y-2.300I-2.500J0.000
G1X55.500
G3X53.000Y-4.800I0.000J-2.500
G3X55.500Y-7.300I2.500J0.000
G1X70.500
G3X73.000Y-4.800I0.000J2.500
G0Z5.080
G0X64.100Y-4.900Z5.080
G1Z-7.875F320.0
G1Y-4.700F960.0
G1X61.900
G1Y-4.900
G1X64.100
G1X66.500Y-7.300
G1Y-2.300
G1X59.500
G1Y-7.300
G1X66.500
G1X64.100Y-4.900
G1Z-9.750F320.0
G1Y-4.700F960.0
G1X61.900
G1Y-4.900
G1X64.100
G1X66.500Y-7.300
G1Y-2.300
G1X59.500
G1Y-7.300
G1X66.500
G1X64.100Y-4.900
G1Z-11.625F320.0
G1Y-4.700F960.0
G1X61.900
G1Y-4.900
G1X64.100
G1X66.500Y-7.300
G1Y-2.300
G1X59.500
G1Y-7.300
G1X66.500
G1X64.100Y-4.900
G1Z-13.500F320.0
G1Y-4.700F960.0
G1X61.900
G1Y-4.900
G1X64.100
G1X66.500Y-7.300
G1Y-2.300
G1X59.500
G1Y-7.300
G1X66.500
G0Z5.080
G0X19.250Y7.010Z5.080
G1Z-1.929F320.0
G3X17.000Y4.760I0.000J-2.250F960.0
G3X19.250Y2.510I2.250J0.000
G3X21.500Y4.760I0.000J2.250
G3X19.250Y7.010I-2.250J0.000
G1Z-3.857F320.0
G3X17.000Y4.760I0.000J-2.250F960.0
G3X19.250Y2.510I2.250J0.000
G3X21.500Y4.760I0.000J2.250
G3X19.250Y7.010I-2.250J0.000
G1Z-5.786F320.0
G3X17.000Y4.760I0.000J-2.250F960.0
G3X19.250Y2.510I2.250J0.000
G3X21.500Y4.760I0.000J2.250
G3X19.250Y7.010I-2.250J0.000
G1Z-7.714F320.0
G3X17.000Y4.760I0.000J-2.250F960.0
G3X19.250Y2.510I2.250J0.000
G3X21.500Y4.760I0.000J2.250
G3X19.250Y7.010I-2.250J0.000
G1Z-9.643F320.0
G3X17.000Y4.760I0.000J-2.250F960.0
G3X19.250Y2.510I2.250J0.000
G3X21.500Y4.760I0.000J2.250
G3X19.250Y7.010I-2.250J0.000
G1Z-11.571F320.0
G3X17.000Y4.760I0.000J-2.250F960.0
G3X19.250Y2.510I2.250J0.000
G3X21.500Y4.760I0.000J2.250
G3X19.250Y7.010I-2.250J0.000
G1Z-13.500F320.0
G3X17.000Y4.760I0.000J-2.250F960.0
G3X19.250Y2.510I2.250J0.000
G3X21.500Y4.760I0.000J2.250
G3X19.250Y7.010I-2.250J0.000
G0Z5.080
G0X-16.580
G1Z-1.929F320.0
G3X-18.830Y4.760I0.000J-2.250F960.0
G3X-16.580Y2.510I2.250J0.000
G3X-14.330Y4.760I0.000J2.250
G3X-16.580Y7.010I-2.250J0.000
G1Z-3.857F320.0
G3X-18.830Y4.760I0.000J-2.250F960.0
G3X-16.580Y2.510I2.250J0.000
G3X-14.330Y4.760I0.000J2.250
G3X-16.580Y7.010I-2.250J0.000
G1Z-5.786F320.0
G3X-18.830Y4.760I0.000J-2.250F960.0
G3X-16.580Y2.510I2.250J0.000
G3X-14.330Y4.760I0.000J2.250
G3X-16.580Y7.010I-2.250J0.000
G1Z-7.714F320.0
G3X-18.830Y4.760I0.000J-2.250F960.0
G3X-16.580Y2.510I2.250J0.000
G3X-14.330Y4.760I0.000J2.250
G3X-16.580Y7.010I-2.250J0.000
G1Z-9.643F320.0
G3X-18.830Y4.760I0.000J-2.250F960.0
G3X-16.580Y2.510I2.250J0.000
G3X-14.330Y4.760I0.000J2.250
G3X-16.580Y7.010I-2.250J0.000
G1Z-11.571F320.0
G3X-18.830Y4.760I0.000J-2.250F960.0
G3X-16.580Y2.510I2.250J0.000
G3X-14.330Y4.760I0.000J2.250
G3X-16.580Y7.010I-2.250J0.000
G1Z-13.500F320.0
G3X-18.830Y4.760I0.000J-2.250F960.0
G3X-16.580Y2.510I2.250J0.000
G3X-14.330Y4.760I0.000J2.250
G3X-16.580Y7.010I-2.250J0.000
G0Z5.080
M5
G0Z20.320
G0X0.000Y0.000
M2
