(VECTRIC POST REVISION)
(2410E23C85915A17A0D6BB4BFA509A68)
T1
G17
G21
G90
G0Z20.320
G0X0.000Y0.000
S18000M3
G0X-13.741Y156.500
G0Z5.080
G1Z-1.800F400.0
G1X24.259F1200.0
G1Y158.500
G1X-13.741
G1Y156.500
G1X-16.141Y154.100
G1X26.659
G1Y160.900
G1X-16.141
G1Y154.100
G1X-18.541Y151.700
G1X29.059
G1Y163.300
G1X-18.541
G1Y151.700
G1X-20.941Y149.300
G1X31.459
G1Y165.700
G1X-20.941
G1Y149.300
G1X-23.341Y146.900
G1X33.859
G1Y168.100
G1X-23.341
G1Y146.900
G1X-25.741Y144.500
G1X36.259
G1Y170.500
G1X-25.741
G1Y144.500
G1X-28.141Y142.100
G1X38.659
G1Y172.900
G1X-28.141
G1Y142.100
G1X-30.541Y139.700
G1X41.059
G1Y175.300
G1X-30.541
G1Y139.700
G1X-32.941Y137.300
G1X43.459
G1Y177.700
G1X-32.941
G1Y137.300
G1X-35.341Y134.900
G1X45.859
G1Y180.100
G1X-35.341
G1Y134.900
G1X-37.741Y132.500
G1X48.259
G1Y182.500
G1X-37.741
G1Y132.500
G1X-35.341Y134.900
G1X-32.941Y137.300
G1X-30.541Y139.700
G1X-28.141Y142.100
G1X-25.741Y144.500
G1X-23.341Y146.900
G1X-20.941Y149.300
G1X-18.541Y151.700
G1X-16.141Y154.100
G1X-13.741Y156.500
G1Z-3.600F400.0
G1X24.259F1200.0
G1Y158.500
G1X-13.741
G1Y156.500
G1X-16.141Y154.100
G1X26.659
G1Y160.900
G1X-16.141
G1Y154.100
G1X-18.541Y151.700
G1X29.059
G1Y163.300
G1X-18.541
G1Y151.700
G1X-20.941Y149.300
G1X31.459
G1Y165.700
G1X-20.941
G1Y149.300
G1X-23.341Y146.900
G1X33.859
G1Y168.100
G1X-23.341
G1Y146.900
G1X-25.741Y144.500
G1X36.259
G1Y170.500
G1X-25.741
G1Y144.500
G1X-28.141Y142.100
G1X38.659
G1Y172.900
G1X-28.141
G1Y142.100
G1X-30.541Y139.700
G1X41.059
G1Y175.300
G1X-30.541
G1Y139.700
G1X-32.941Y137.300
G1X43.459
G1Y177.700
G1X-32.941
G1Y137.300
G1X-35.341Y134.900
G1X45.859
G1Y180.100
G1X-35.341
G1Y134.900
G1X-37.741Y132.500
G1X48.259
G1Y182.500
G1X-37.741
G1Y132.500
G0Z5.080
G0X-8.119Y159.400Z5.080
G1Z-4.600F400.0
G1Y155.600F1200.0
G1X14.681
G1Y159.400
G1X-8.119
G1X-10.519Y161.800
G1Y153.200
G1X17.081
G1Y161.800
G1X-10.519
G1X-12.919Y164.200
G1Y150.800
G1X19.481
G1Y164.200
G1X-12.919
G1X-15.319Y166.600
G1Y148.400
G1X21.881
G1Y166.600
G1X-15.319
G1X-17.719Y169.000
G1Y146.000
G1X24.281
G1Y169.000
G1X-17.719
G1X-20.119Y171.400
G1Y143.600
G1X26.681
G1Y171.400
G1X-20.119
G1X-22.519Y173.800
G1Y141.200
G1X29.081
G1Y173.800
G1X-22.519
G1X-24.919Y176.200
G1Y138.800
G1X31.481
G1Y176.200
G1X-24.919
G1X-27.319Y178.600
G1Y136.400
G1X33.881
G1Y178.600
G1X-27.319
G1X-29.719Y181.000
G1Y134.000
G1X36.281
G1Y181.000
G1X-29.719
G0Z5.080
G0X-7.800Y157.200Z5.080
G1Z-6.700F400.0
G1X7.800F1200.0
G1Y157.800
G1X-7.800
G1Y157.200
G1X-10.200Y154.800
G1X10.200
G1Y160.200
G1X-10.200
G1Y154.800
G1X-12.600Y152.400
G1X12.600
G1Y162.600
G1X-12.600
G1Y152.400
G1X-15.000Y150.000
G1X15.000
G1Y165.000
G1X-15.000
G1Y150.000
G1X-17.400Y147.600
G1X17.400
G1Y167.400
G1X-17.400
G1Y147.600
G1X-19.800Y145.200
G1X19.800
G1Y169.800
G1X-19.800
G1Y145.200
G1X-22.200Y142.800
G1X22.200
G1Y172.200
G1X-22.200
G1Y142.800
G1X-24.600Y140.400
G1X24.600
G1Y174.600
G1X-24.600
G1Y140.400
G1X-27.000Y138.000
G1X27.000
G1Y177.000
G1X-27.000
G1Y138.000
G0Z5.080
G0X-60.000Y142.700Z5.080
G1Z-1.000F400.0
G3X-60.200Y142.500I0.000J-0.200F1200.0
G3X-60.000Y142.300I0.200J0.000
G3X-59.800Y142.500I0.000J0.200
G3X-60.000Y142.700I-0.200J0.000
G1Y145.100
G3X-62.600Y142.500I0.000J-2.600
G3X-60.000Y139.900I2.600J0.000
G3X-57.400Y142.500I0.000J2.600
G3X-60.000Y145.100I-2.600J0.000
G1Y147.500
G3X-65.000Y142.500I0.000J-5.000
G3X-60.000Y137.500I5.000J0.000
G3X-55.000Y142.500I0.000J5.000
G3X-60.000Y147.500I-5.000J0.000
G1Y149.900
G3X-67.400Y142.500I0.000J-7.400
G3X-60.000Y135.100I7.400J0.000
G3X-52.600Y142.500I0.000J7.400
G3X-60.000Y149.900I-7.400J0.000
G1Y152.300
G3X-69.800Y142.500I0.000J-9.800
G3X-60.000Y132.700I9.800J0.000
G3X-50.200Y142.500I0.000J9.800
G3X-60.000Y152.300I-9.800J0.000
G1Y154.700
G3X-72.200Y142.500I0.000J-12.200
G3X-60.000Y130.300I12.200J0.000
G3X-47.800Y142.500I0.000J12.200
G3X-60.000Y154.700I-12.200J0.000
G1Y157.100
G3X-74.600Y142.500I0.000J-14.600
G3X-60.000Y127.900I14.600J0.000
G3X-45.400Y142.500I0.000J14.600
G3X-60.000Y157.100I-14.600J0.000
G1Y159.500
G3X-77.000Y142.500I0.000J-17.000
G3X-60.000Y125.500I17.000J0.000
G3X-43.000Y142.500I0.000J17.000
G3X-60.000Y159.500I-17.000J0.000
G0Z5.080
G0X-72.124Y135.470Z5.080
G1Z-1.500F400.0
G2X-72.154Y135.500I0.000J0.030F1200.0
G2X-72.124Y135.530I0.030J0.000
G2X-72.094Y135.500I0.000J-0.030
G2X-72.124Y135.470I-0.030J0.000
G0Z5.080
G0X-60.000Y156.470
G1Z-1.500F400.0
G2X-60.030Y156.500I0.000J0.030F1200.0
G2X-60.000Y156.530I0.030J0.000
G2X-59.970Y156.500I0.000J-0.030
G2X-60.000Y156.470I-0.030J0.000
G0Z5.080
G0X-47.876Y135.470
G1Z-1.500F400.0
G2X-47.906Y135.500I0.000J0.030F1200.0
G2X-47.876Y135.530I0.030J0.000
G2X-47.846Y135.500I0.000J-0.030
G2X-47.876Y135.470I-0.030J0.000
G0Z5.080
G0X-20.000Y45.500Z5.080
G1Z-1.675F400.0
G3X-20.500Y45.000I0.000J-0.500F1200.0
G3X-20.000Y44.500I0.500J0.000
G3X-19.500Y45.000I0.000J0.500
G3X-20.000Y45.500I-0.500J0.000
G1Z-3.350F400.0
G3X-20.500Y45.000I0.000J-0.500F1200.0
G3X-20.000Y44.500I0.500J0.000
G3X-19.500Y45.000I0.000J0.500
G3X-20.000Y45.500I-0.500J0.000
G1Z-5.025F400.0
G3X-20.500Y45.000I0.000J-0.500F1200.0
G3X-20.000Y44.500I0.500J0.000
G3X-19.500Y45.000I0.000J0.500
G3X-20.000Y45.500I-0.500J0.000
G1Z-6.700F400.0
G3X-20.500Y45.000I0.000J-0.500F1200.0
G3X-20.000Y44.500I0.500J0.000
G3X-19.500Y45.000I0.000J0.500
G3X-20.000Y45.500I-0.500J0.000
G0Z5.080
G0X-60.000
G1Z-1.675F400.0
G3X-60.500Y45.000I0.000J-0.500F1200.0
G3X-60.000Y44.500I0.500J0.000
G3X-59.500Y45.000I0.000J0.500
G3X-60.000Y45.500I-0.500J0.000
G1Z-3.350F400.0
G3X-60.500Y45.000I0.000J-0.500F1200.0
G3X-60.000Y44.500I0.500J0.000
G3X-59.500Y45.000I0.000J0.500
G3X-60.000Y45.500I-0.500J0.000
G1Z-5.025F400.0
G3X-60.500Y45.000I0.000J-0.500F1200.0
G3X-60.000Y44.500I0.500J0.000
G3X-59.500Y45.000I0.000J0.500
G3X-60.000Y45.500I-0.500J0.000
G1Z-6.700F400.0
G3X-60.500Y45.000I0.000J-0.500F1200.0
G3X-60.000Y44.500I0.500J0.000
G3X-59.500Y45.000I0.000J0.500
G3X-60.000Y45.500I-0.500J0.000
G0Z5.080
G0X-87.970Y17.000
G1Z-1.675F400.0
G2X-88.000Y16.970I-0.030J0.000F1200.0
G2X-88.030Y17.000I0.000J0.030
G2X-88.000Y17.030I0.030J0.000
G2X-87.970Y17.000I0.000J-0.030
G1Z-3.350F400.0
G2X-88.000Y16.970I-0.030J0.000F1200.0
G2X-88.030Y17.000I0.000J0.030
G2X-88.000Y17.030I0.030J0.000
G2X-87.970Y17.000I0.000J-0.030
G1Z-5.025F400.0
G2X-88.000Y16.970I-0.030J0.000F1200.0
G2X-88.030Y17.000I0.000J0.030
G2X-88.000Y17.030I0.030J0.000
G2X-87.970Y17.000I0.000J-0.030
G1Z-6.700F400.0
G2X-88.000Y16.970I-0.030J0.000F1200.0
G2X-88.030Y17.000I0.000J0.030
G2X-88.000Y17.030I0.030J0.000
G2X-87.970Y17.000I0.000J-0.030
G0Z5.080
G0Y-17.000
G1Z-1.675F400.0
G2X-88.000Y-17.030I-0.030J0.000F1200.0
G2X-88.030Y-17.000I0.000J0.030
G2X-88.000Y-16.970I0.030J0.000
G2X-87.970Y-17.000I0.000J-0.030
G1Z-3.350F400.0
G2X-88.000Y-17.030I-0.030J0.000F1200.0
G2X-88.030Y-17.000I0.000J0.030
G2X-88.000Y-16.970I0.030J0.000
G2X-87.970Y-17.000I0.000J-0.030
G1Z-5.025F400.0
G2X-88.000Y-17.030I-0.030J0.000F1200.0
G2X-88.030Y-17.000I0.000J0.030
G2X-88.000Y-16.970I0.030J0.000
G2X-87.970Y-17.000I0.000J-0.030
G1Z-6.700F400.0
G2X-88.000Y-17.030I-0.030J0.000F1200.0
G2X-88.030Y-17.000I0.000J0.030
G2X-88.000Y-16.970I0.030J0.000
G2X-87.970Y-17.000I0.000J-0.030
G0Z5.080
G0X-60.000Y85.500
G1Z-1.675F400.0
G3X-60.500Y85.000I0.000J-0.500F1200.0
G3X-60.000Y84.500I0.500J0.000
G3X-59.500Y85.000I0.000J0.500
G3X-60.000Y85.500I-0.500J0.000
G1Z-3.350F400.0
G3X-60.500Y85.000I0.000J-0.500F1200.0
G3X-60.000Y84.500I0.500J0.000
G3X-59.500Y85.000I0.000J0.500
G3X-60.000Y85.500I-0.500J0.000
G1Z-5.025F400.0
G3X-60.500Y85.000I0.000J-0.500F1200.0
G3X-60.000Y84.500I0.500J0.000
G3X-59.500Y85.000I0.000J0.500
G3X-60.000Y85.500I-0.500J0.000
G1Z-6.700F400.0
G3X-60.500Y85.000I0.000J-0.500F1200.0
G3X-60.000Y84.500I0.500J0.000
G3X-59.500Y85.000I0.000J0.500
G3X-60.000Y85.500I-0.500J0.000
G0Z5.080
G0X-20.000
G1Z-1.675F400.0
G3X-20.500Y85.000I0.000J-0.500F1200.0
G3X-20.000Y84.500I0.500J0.000
G3X-19.500Y85.000I0.000J0.500
G3X-20.000Y85.500I-0.500J0.000
G1Z-3.350F400.0
G3X-20.500Y85.000I0.000J-0.500F1200.0
G3X-20.000Y84.500I0.500J0.000
G3X-19.500Y85.000I0.000J0.500
G3X-20.000Y85.500I-0.500J0.000
G1Z-5.025F400.0
G3X-20.500Y85.000I0.000J-0.500F1200.0
G3X-20.000Y84.500I0.500J0.000
G3X-19.500Y85.000I0.000J0.500
G3X-20.000Y85.500I-0.500J0.000
G1Z-6.700F400.0
G3X-20.500Y85.000I0.000J-0.500F1200.0
G3X-20.000Y84.500I0.500J0.000
G3X-19.500Y85.000I0.000J0.500
G3X-20.000Y85.500I-0.500J0.000
G0Z5.080
G0X-23.000Y118.600
G1Z-1.675F400.0
G3X-23.600Y118.000I0.000J-0.600F1200.0
G3X-23.000Y117.400I0.600J0.000
G3X-22.400Y118.000I0.000J0.600
G3X-23.000Y118.600I-0.600J0.000
G1Y121.000
G3X-26.000Y118.000I0.000J-3.000
G3X-23.000Y115.000I3.000J0.000
G3X-20.000Y118.000I0.000J3.000
G3X-23.000Y121.000I-3.000J0.000
G1Y118.600
G1Z-3.350F400.0
G3X-23.600Y118.000I0.000J-0.600F1200.0
G3X-23.000Y117.400I0.600J0.000
G3X-22.400Y118.000I0.000J0.600
G3X-23.000Y118.600I-0.600J0.000
G1Y121.000
G3X-26.000Y118.000I0.000J-3.000
G3X-23.000Y115.000I3.000J0.000
G3X-20.000Y118.000I0.000J3.000
G3X-23.000Y121.000I-3.000J0.000
G1Y118.600
G1Z-5.025F400.0
G3X-23.600Y118.000I0.000J-0.600F1200.0
G3X-23.000Y117.400I0.600J0.000
G3X-22.400Y118.000I0.000J0.600
G3X-23.000Y118.600I-0.600J0.000
G1Y121.000
G3X-26.000Y118.000I0.000J-3.000
G3X-23.000Y115.000I3.000J0.000
G3X-20.000Y118.000I0.000J3.000
G3X-23.000Y121.000I-3.000J0.000
G1Y118.600
G1Z-6.700F400.0
G3X-23.600Y118.000I0.000J-0.600F1200.0
G3X-23.000Y117.400I0.600J0.000
G3X-22.400Y118.000I0.000J0.600
G3X-23.000Y118.600I-0.600J0.000
G1Y121.000
G3X-26.000Y118.000I0.000J-3.000
G3X-23.000Y115.000I3.000J0.000
G3X-20.000Y118.000I0.000J3.000
G3X-23.000Y121.000I-3.000J0.000
G0Z5.080
G0X0.000Y118.600
G1Z-1.675F400.0
G3X-0.600Y118.000I0.000J-0.600F1200.0
G3X0.000Y117.400I0.600J0.000
G3X0.600Y118.000I0.000J0.600
G3X0.000Y118.600I-0.600J0.000
G1X0.000Y121.000
G3X-3.000Y118.000I0.000J-3.000
G3X0.000Y115.000I3.000J0.000
G3X3.000Y118.000I0.000J3.000
G3X0.000Y121.000I-3.000J0.000
G1X0.000Y118.600
G1Z-3.350F400.0
G3X-0.600Y118.000I0.000J-0.600F1200.0
G3X0.000Y117.400I0.600J0.000
G3X0.600Y118.000I0.000J0.600
G3X0.000Y118.600I-0.600J0.000
G1X0.000Y121.000
G3X-3.000Y118.000I0.000J-3.000
G3X0.000Y115.000I3.000J0.000
G3X3.000Y118.000I0.000J3.000
G3X0.000Y121.000I-3.000J0.000
G1X0.000Y118.600
G1Z-5.025F400.0
G3X-0.600Y118.000I0.000J-0.600F1200.0
G3X0.000Y117.400I0.600J0.000
G3X0.600Y118.000I0.000J0.600
G3X0.000Y118.600I-0.600J0.000
G1X0.000Y121.000
G3X-3.000Y118.000I0.000J-3.000
G3X0.000Y115.000I3.000J0.000
G3X3.000Y118.000I0.000J3.000
G3X0.000Y121.000I-3.000J0.000
G1X0.000Y118.600
G1Z-6.700F400.0
G3X-0.600Y118.000I0.000J-0.600F1200.0
G3X0.000Y117.400I0.600J0.000
G3X0.600Y118.000I0.000J0.600
G3X0.000Y118.600I-0.600J0.000
G1X0.000Y121.000
G3X-3.000Y118.000I0.000J-3.000
G3X0.000Y115.000I3.000J0.000
G3X3.000Y118.000I0.000J3.000
G3X0.000Y121.000I-3.000J0.000
G0Z5.080
G0X23.000Y118.600
G1Z-1.675F400.0
G3X22.400Y118.000I0.000J-0.600F1200.0
G3X23.000Y117.400I0.600J0.000
G3X23.600Y118.000I0.000J0.600
G3X23.000Y118.600I-0.600J0.000
G1Y121.000
G3X20.000Y118.000I0.000J-3.000
G3X23.000Y115.000I3.000J0.000
G3X26.000Y118.000I0.000J3.000
G3X23.000Y121.000I-3.000J0.000
G1Y118.600
G1Z-3.350F400.0
G3X22.400Y118.000I0.000J-0.600F1200.0
G3X23.000Y117.400I0.600J0.000
G3X23.600Y118.000I0.000J0.600
G3X23.000Y118.600I-0.600J0.000
G1Y121.000
G3X20.000Y118.000I0.000J-3.000
G3X23.000Y115.000I3.000J0.000
G3X26.000Y118.000I0.000J3.000
G3X23.000Y121.000I-3.000J0.000
G1Y118.600
G1Z-5.025F400.0
G3X22.400Y118.000I0.000J-0.600F1200.0
G3X23.000Y117.400I0.600J0.000
G3X23.600Y118.000I0.000J0.600
G3X23.000Y118.600I-0.600J0.000
G1Y121.000
G3X20.000Y118.000I0.000J-3.000
G3X23.000Y115.000I3.000J0.000
G3X26.000Y118.000I0.000J3.000
G3X23.000Y121.000I-3.000J0.000
G1Y118.600
G1Z-6.700F400.0
G3X22.400Y118.000I0.000J-0.600F1200.0
G3X23.000Y117.400I0.600J0.000
G3X23.600Y118.000I0.000J0.600
G3X23.000Y118.600I-0.600J0.000
G1Y121.000
G3X20.000Y118.000I0.000J-3.000
G3X23.000Y115.000I3.000J0.000
G3X26.000Y118.000I0.000J3.000
G3X23.000Y121.000I-3.000J0.000
G0Z5.080
G0X20.000Y85.500
G1Z-1.675F400.0
G3X19.500Y85.000I0.000J-0.500F1200.0
G3X20.000Y84.500I0.500J0.000
G3X20.500Y85.000I0.000J0.500
G3X20.000Y85.500I-0.500J0.000
G1Z-3.350F400.0
G3X19.500Y85.000I0.000J-0.500F1200.0
G3X20.000Y84.500I0.500J0.000
G3X20.500Y85.000I0.000J0.500
G3X20.000Y85.500I-0.500J0.000
G1Z-5.025F400.0
G3X19.500Y85.000I0.000J-0.500F1200.0
G3X20.000Y84.500I0.500J0.000
G3X20.500Y85.000I0.000J0.500
G3X20.000Y85.500I-0.500J0.000
G1Z-6.700F400.0
G3X19.500Y85.000I0.000J-0.500F1200.0
G3X20.000Y84.500I0.500J0.000
G3X20.500Y85.000I0.000J0.500
G3X20.000Y85.500I-0.500J0.000
G0Z5.080
G0Y45.500
G1Z-1.675F400.0
G3X19.500Y45.000I0.000J-0.500F1200.0
G3X20.000Y44.500I0.500J0.000
G3X20.500Y45.000I0.000J0.500
G3X20.000Y45.500I-0.500J0.000
G1Z-3.350F400.0
G3X19.500Y45.000I0.000J-0.500F1200.0
G3X20.000Y44.500I0.500J0.000
G3X20.500Y45.000I0.000J0.500
G3X20.000Y45.500I-0.500J0.000
G1Z-5.025F400.0
G3X19.500Y45.000I0.000J-0.500F1200.0
G3X20.000Y44.500I0.500J0.000
G3X20.500Y45.000I0.000J0.500
G3X20.000Y45.500I-0.500J0.000
G1Z-6.700F400.0
G3X19.500Y45.000I0.000J-0.500F1200.0
G3X20.000Y44.500I0.500J0.000
G3X20.500Y45.000I0.000J0.500
G3X20.000Y45.500I-0.500J0.000
G0Z5.080
G0X60.000
G1Z-1.675F400.0
G3X59.500Y45.000I0.000J-0.500F1200.0
G3X60.000Y44.500I0.500J0.000
G3X60.500Y45.000I0.000J0.500
G3X60.000Y45.500I-0.500J0.000
G1Z-3.350F400.0
G3X59.500Y45.000I0.000J-0.500F1200.0
G3X60.000Y44.500I0.500J0.000
G3X60.500Y45.000I0.000J0.500
G3X60.000Y45.500I-0.500J0.000
G1Z-5.025F400.0
G3X59.500Y45.000I0.000J-0.500F1200.0
G3X60.000Y44.500I0.500J0.000
G3X60.500Y45.000I0.000J0.500
G3X60.000Y45.500I-0.500J0.000
G1Z-6.700F400.0
G3X59.500Y45.000I0.000J-0.500F1200.0
G3X60.000Y44.500I0.500J0.000
G3X60.500Y45.000I0.000J0.500
G3X60.000Y45.500I-0.500J0.000
G0Z5.080
G0X87.970Y17.000
G1Z-1.675F400.0
G2X88.000Y17.030I0.030J0.000F1200.0
G2X88.030Y17.000I0.000J-0.030
G2X88.000Y16.970I-0.030J0.000
G2X87.970Y17.000I0.000J0.030
G1Z-3.350F400.0
G2X88.000Y17.030I0.030J0.000F1200.0
G2X88.030Y17.000I0.000J-0.030
G2X88.000Y16.970I-0.030J0.000
G2X87.970Y17.000I0.000J0.030
G1Z-5.025F400.0
G2X88.000Y17.030I0.030J0.000F1200.0
G2X88.030Y17.000I0.000J-0.030
G2X88.000Y16.970I-0.030J0.000
G2X87.970Y17.000I0.000J0.030
G1Z-6.700F400.0
G2X88.000Y17.030I0.030J0.000F1200.0
G2X88.030Y17.000I0.000J-0.030
G2X88.000Y16.970I-0.030J0.000
G2X87.970Y17.000I0.000J0.030
G0Z5.080
G0Y-17.000
G1Z-1.675F400.0
G2X88.000Y-16.970I0.030J0.000F1200.0
G2X88.030Y-17.000I0.000J-0.030
G2X88.000Y-17.030I-0.030J0.000
G2X87.970Y-17.000I0.000J0.030
G1Z-3.350F400.0
G2X88.000Y-16.970I0.030J0.000F1200.0
G2X88.030Y-17.000I0.000J-0.030
G2X88.000Y-17.030I-0.030J0.000
G2X87.970Y-17.000I0.000J0.030
G1Z-5.025F400.0
G2X88.000Y-16.970I0.030J0.000F1200.0
G2X88.030Y-17.000I0.000J-0.030
G2X88.000Y-17.030I-0.030J0.000
G2X87.970Y-17.000I0.000J0.030
G1Z-6.700F400.0
G2X88.000Y-16.970I0.030J0.000F1200.0
G2X88.030Y-17.000I0.000J-0.030
G2X88.000Y-17.030I-0.030J0.000
G2X87.970Y-17.000I0.000J0.030
G0Z5.080
G0X60.000Y85.500
G1Z-1.675F400.0
G3X59.500Y85.000I0.000J-0.500F1200.0
G3X60.000Y84.500I0.500J0.000
G3X60.500Y85.000I0.000J0.500
G3X60.000Y85.500I-0.500J0.000
G1Z-3.350F400.0
G3X59.500Y85.000I0.000J-0.500F1200.0
G3X60.000Y84.500I0.500J0.000
G3X60.500Y85.000I0.000J0.500
G3X60.000Y85.500I-0.500J0.000
G1Z-5.025F400.0
G3X59.500Y85.000I0.000J-0.500F1200.0
G3X60.000Y84.500I0.500J0.000
G3X60.500Y85.000I0.000J0.500
G3X60.000Y85.500I-0.500J0.000
G1Z-6.700F400.0
G3X59.500Y85.000I0.000J-0.500F1200.0
G3X60.000Y84.500I0.500J0.000
G3X60.500Y85.000I0.000J0.500
G3X60.000Y85.500I-0.500J0.000
G0Z5.080
G0X58.500Y141.100
G1Z-1.675F400.0
G3X57.900Y140.500I0.000J-0.600F1200.0
G3X58.500Y139.900I0.600J0.000
G3X59.100Y140.500I0.000J0.600
G3X58.500Y141.100I-0.600J0.000
G1Y143.500
G3X55.500Y140.500I0.000J-3.000
G3X58.500Y137.500I3.000J0.000
G3X61.500Y140.500I0.000J3.000
G3X58.500Y143.500I-3.000J0.000
G1Y141.100
G1Z-3.350F400.0
G3X57.900Y140.500I0.000J-0.600F1200.0
G3X58.500Y139.900I0.600J0.000
G3X59.100Y140.500I0.000J0.600
G3X58.500Y141.100I-0.600J0.000
G1Y143.500
G3X55.500Y140.500I0.000J-3.000
G3X58.500Y137.500I3.000J0.000
G3X61.500Y140.500I0.000J3.000
G3X58.500Y143.500I-3.000J0.000
G1Y141.100
G1Z-5.025F400.0
G3X57.900Y140.500I0.000J-0.600F1200.0
G3X58.500Y139.900I0.600J0.000
G3X59.100Y140.500I0.000J0.600
G3X58.500Y141.100I-0.600J0.000
G1Y143.500
G3X55.500Y140.500I0.000J-3.000
G3X58.500Y137.500I3.000J0.000
G3X61.500Y140.500I0.000J3.000
G3X58.500Y143.500I-3.000J0.000
G1Y141.100
G1Z-6.700F400.0
G3X57.900Y140.500I0.000J-0.600F1200.0
G3X58.500Y139.900I0.600J0.000
G3X59.100Y140.500I0.000J0.600
G3X58.500Y141.100I-0.600J0.000
G1Y143.500
G3X55.500Y140.500I0.000J-3.000
G3X58.500Y137.500I3.000J0.000
G3X61.500Y140.500I0.000J3.000
G3X58.500Y143.500I-3.000J0.000
G0Z5.080
G0Y158.100
G1Z-1.675F400.0
G3X57.900Y157.500I0.000J-0.600F1200.0
G3X58.500Y156.900I0.600J0.000
G3X59.100Y157.500I0.000J0.600
G3X58.500Y158.100I-0.600J0.000
G1Y160.500
G3X55.500Y157.500I0.000J-3.000
G3X58.500Y154.500I3.000J0.000
G3X61.500Y157.500I0.000J3.000
G3X58.500Y160.500I-3.000J0.000
G1Y158.100
G1Z-3.350F400.0
G3X57.900Y157.500I0.000J-0.600F1200.0
G3X58.500Y156.900I0.600J0.000
G3X59.100Y157.500I0.000J0.600
G3X58.500Y158.100I-0.600J0.000
G1Y160.500
G3X55.500Y157.500I0.000J-3.000
G3X58.500Y154.500I3.000J0.000
G3X61.500Y157.500I0.000J3.000
G3X58.500Y160.500I-3.000J0.000
G1Y158.100
G1Z-5.025F400.0
G3X57.900Y157.500I0.000J-0.600F1200.0
G3X58.500Y156.900I0.600J0.000
G3X59.100Y157.500I0.000J0.600
G3X58.500Y158.100I-0.600J0.000
G1Y160.500
G3X55.500Y157.500I0.000J-3.000
G3X58.500Y154.500I3.000J0.000
G3X61.500Y157.500I0.000J3.000
G3X58.500Y160.500I-3.000J0.000
G1Y158.100
G1Z-6.700F400.0
G3X57.900Y157.500I0.000J-0.600F1200.0
G3X58.500Y156.900I0.600J0.000
G3X59.100Y157.500I0.000J0.600
G3X58.500Y158.100I-0.600J0.000
G1Y160.500
G3X55.500Y157.500I0.000J-3.000
G3X58.500Y154.500I3.000J0.000
G3X61.500Y157.500I0.000J3.000
G3X58.500Y160.500I-3.000J0.000
G0Z5.080
G0Y175.100
G1Z-1.675F400.0
G3X57.900Y174.500I0.000J-0.600F1200.0
G3X58.500Y173.900I0.600J0.000
G3X59.100Y174.500I0.000J0.600
G3X58.500Y175.100I-0.600J0.000
G1Y177.500
G3X55.500Y174.500I0.000J-3.000
G3X58.500Y171.500I3.000J0.000
G3X61.500Y174.500I0.000J3.000
G3X58.500Y177.500I-3.000J0.000
G1Y175.100
G1Z-3.350F400.0
G3X57.900Y174.500I0.000J-0.600F1200.0
G3X58.500Y173.900I0.600J0.000
G3X59.100Y174.500I0.000J0.600
G3X58.500Y175.100I-0.600J0.000
G1Y177.500
G3X55.500Y174.500I0.000J-3.000
G3X58.500Y171.500I3.000J0.000
G3X61.500Y174.500I0.000J3.000
G3X58.500Y177.500I-3.000J0.000
G1Y175.100
G1Z-5.025F400.0
G3X57.900Y174.500I0.000J-0.600F1200.0
G3X58.500Y173.900I0.600J0.000
G3X59.100Y174.500I0.000J0.600
G3X58.500Y175.100I-0.600J0.000
G1Y177.500
G3X55.500Y174.500I0.000J-3.000
G3X58.500Y171.500I3.000J0.000
G3X61.500Y174.500I0.000J3.000
G3X58.500Y177.500I-3.000J0.000
G1Y175.100
G1Z-6.700F400.0
G3X57.900Y174.500I0.000J-0.600F1200.0
G3X58.500Y173.900I0.600J0.000
G3X59.100Y174.500I0.000J0.600
G3X58.500Y175.100I-0.600J0.000
G1Y177.500
G3X55.500Y174.500I0.000J-3.000
G3X58.500Y171.500I3.000J0.000
G3X61.500Y174.500I0.000J3.000
G3X58.500Y177.500I-3.000J0.000
G0Z5.080
G0X88.000Y192.970
G1Z-1.675F400.0
G2X87.970Y193.000I0.000J0.030F1200.0
G2X88.000Y193.030I0.030J0.000
G2X88.030Y193.000I0.000J-0.030
G2X88.000Y192.970I-0.030J0.000
G1Z-3.350F400.0
G2X87.970Y193.000I0.000J0.030F1200.0
G2X88.000Y193.030I0.030J0.000
G2X88.030Y193.000I0.000J-0.030
G2X88.000Y192.970I-0.030J0.000
G1Z-5.025F400.0
G2X87.970Y193.000I0.000J0.030F1200.0
G2X88.000Y193.030I0.030J0.000
G2X88.030Y193.000I0.000J-0.030
G2X88.000Y192.970I-0.030J0.000
G1Z-6.700F400.0
G2X87.970Y193.000I0.000J0.030F1200.0
G2X88.000Y193.030I0.030J0.000
G2X88.030Y193.000I0.000J-0.030
G2X88.000Y192.970I-0.030J0.000
G0Z5.080
G0X-60.000Y173.000
G1Z-1.675F400.0
G3X-60.500Y172.500I0.000J-0.500F1200.0
G3X-60.000Y172.000I0.500J0.000
G3X-59.500Y172.500I0.000J0.500
G3X-60.000Y173.000I-0.500J0.000
G1Z-3.350F400.0
G3X-60.500Y172.500I0.000J-0.500F1200.0
G3X-60.000Y172.000I0.500J0.000
G3X-59.500Y172.500I0.000J0.500
G3X-60.000Y173.000I-0.500J0.000
G1Z-5.025F400.0
G3X-60.500Y172.500I0.000J-0.500F1200.0
G3X-60.000Y172.000I0.500J0.000
G3X-59.500Y172.500I0.000J0.500
G3X-60.000Y173.000I-0.500J0.000
G1Z-6.700F400.0
G3X-60.500Y172.500I0.000J-0.500F1200.0
G3X-60.000Y172.000I0.500J0.000
G3X-59.500Y172.500I0.000J0.500
G3X-60.000Y173.000I-0.500J0.000
G0Z5.080
G0Y144.700
G1Z-1.675F400.0
G3X-62.200Y142.500I0.000J-2.200F1200.0
G3X-60.000Y140.300I2.200J0.000
G3X-57.800Y142.500I0.000J2.200
G3X-60.000Y144.700I-2.200J0.000
G1Y147.100
G3X-64.600Y142.500I0.000J-4.600
G3X-60.000Y137.900I4.600J0.000
G3X-55.400Y142.500I0.000J4.600
G3X-60.000Y147.100I-4.600J0.000
G1Y149.500
G3X-67.000Y142.500I0.000J-7.000
G3X-60.000Y135.500I7.000J0.000
G3X-53.000Y142.500I0.000J7.000
G3X-60.000Y149.500I-7.000J0.000
G1Y147.100
G1Y144.700
G1Z-3.350F400.0
G3X-62.200Y142.500I0.000J-2.200F1200.0
G3X-60.000Y140.300I2.200J0.000
G3X-57.800Y142.500I0.000J2.200
G3X-60.000Y144.700I-2.200J0.000
G1Y147.100
G3X-64.600Y142.500I0.000J-4.600
G3X-60.000Y137.900I4.600J0.000
G3X-55.400Y142.500I0.000J4.600
G3X-60.000Y147.100I-4.600J0.000
G1Y149.500
G3X-67.000Y142.500I0.000J-7.000
G3X-60.000Y135.500I7.000J0.000
G3X-53.000Y142.500I0.000J7.000
G3X-60.000Y149.500I-7.000J0.000
G1Y147.100
G1Y144.700
G1Z-5.025F400.0
G3X-62.200Y142.500I0.000J-2.200F1200.0
G3X-60.000Y140.300I2.200J0.000
G3X-57.800Y142.500I0.000J2.200
G3X-60.000Y144.700I-2.200J0.000
G1Y147.100
G3X-64.600Y142.500I0.000J-4.600
G3X-60.000Y137.900I4.600J0.000
G3X-55.400Y142.500I0.000J4.600
G3X-60.000Y147.100I-4.600J0.000
G1Y149.500
G3X-67.000Y142.500I0.000J-7.000
G3X-60.000Y135.500I7.000J0.000
G3X-53.000Y142.500I0.000J7.000
G3X-60.000Y149.500I-7.000J0.000
G1Y147.100
G1Y144.700
G1Z-6.700F400.0
G3X-62.200Y142.500I0.000J-2.200F1200.0
G3X-60.000Y140.300I2.200J0.000
G3X-57.800Y142.500I0.000J2.200
G3X-60.000Y144.700I-2.200J0.000
G1Y147.100
G3X-64.600Y142.500I0.000J-4.600
G3X-60.000Y137.900I4.600J0.000
G3X-55.400Y142.500I0.000J4.600
G3X-60.000Y147.100I-4.600J0.000
G1Y149.500
G3X-67.000Y142.500I0.000J-7.000
G3X-60.000Y135.500I7.000J0.000
G3X-53.000Y142.500I0.000J7.000
G3X-60.000Y149.500I-7.000J0.000
G0Z5.080
G0X-88.000Y192.970
G1Z-1.675F400.0
G2X-88.030Y193.000I0.000J0.030F1200.0
G2X-88.000Y193.030I0.030J0.000
G2X-87.970Y193.000I0.000J-0.030
G2X-88.000Y192.970I-0.030J0.000
G1Z-3.350F400.0
G2X-88.030Y193.000I0.000J0.030F1200.0
G2X-88.000Y193.030I0.030J0.000
G2X-87.970Y193.000I0.000J-0.030
G2X-88.000Y192.970I-0.030J0.000
G1Z-5.025F400.0
G2X-88.030Y193.000I0.000J0.030F1200.0
G2X-88.000Y193.030I0.030J0.000
G2X-87.970Y193.000I0.000J-0.030
G2X-88.000Y192.970I-0.030J0.000
G1Z-6.700F400.0
G2X-88.030Y193.000I0.000J0.030F1200.0
G2X-88.000Y193.030I0.030J0.000
G2X-87.970Y193.000I0.000J-0.030
G2X-88.000Y192.970I-0.030J0.000
G0Z5.080
G0Y-192.970
G1Z-1.675F400.0
G2X-87.970Y-193.000I0.000J-0.030F1200.0
G2X-88.000Y-193.030I-0.030J0.000
G2X-88.030Y-193.000I0.000J0.030
G2X-88.000Y-192.970I0.030J0.000
G1Z-3.350F400.0
G2X-87.970Y-193.000I0.000J-0.030F1200.0
G2X-88.000Y-193.030I-0.030J0.000
G2X-88.030Y-193.000I0.000J0.030
G2X-88.000Y-192.970I0.030J0.000
G1Z-5.025F400.0
G2X-87.970Y-193.000I0.000J-0.030F1200.0
G2X-88.000Y-193.030I-0.030J0.000
G2X-88.030Y-193.000I0.000J0.030
G2X-88.000Y-192.970I0.030J0.000
G1Z-6.700F400.0
G2X-87.970Y-193.000I0.000J-0.030F1200.0
G2X-88.000Y-193.030I-0.030J0.000
G2X-88.030Y-193.000I0.000J0.030
G2X-88.000Y-192.970I0.030J0.000
G0Z5.080
G0X88.000
G1Z-1.675F400.0
G2X88.030Y-193.000I0.000J-0.030F1200.0
G2X88.000Y-193.030I-0.030J0.000
G2X87.970Y-193.000I0.000J0.030
G2X88.000Y-192.970I0.030J0.000
G1Z-3.350F400.0
G2X88.030Y-193.000I0.000J-0.030F1200.0
G2X88.000Y-193.030I-0.030J0.000
G2X87.970Y-193.000I0.000J0.030
G2X88.000Y-192.970I0.030J0.000
G1Z-5.025F400.0
G2X88.030Y-193.000I0.000J-0.030F1200.0
G2X88.000Y-193.030I-0.030J0.000
G2X87.970Y-193.000I0.000J0.030
G2X88.000Y-192.970I0.030J0.000
G1Z-6.700F400.0
G2X88.030Y-193.000I0.000J-0.030F1200.0
G2X88.000Y-193.030I-0.030J0.000
G2X87.970Y-193.000I0.000J0.030
G2X88.000Y-192.970I0.030J0.000
G0Z5.080
G0X37.222Y-6.750Z5.080
G1Z-1.675F400.0
G1X46.222F1200.0
G1X55.222
G1X89.000
G2X98.250Y-16.000I0.000J-9.250
G1Y-48.317
G1Y-57.317
G1Y-66.317
G1Y-142.222
G1Y-151.222
G1Y-160.222
G1Y-194.000
G2X89.000Y-203.250I-9.250J0.000
G1X56.681
G1X47.681
G1X38.681
G1X-37.223
G1X-46.223
G1X-55.223
G1X-89.000
G2X-98.250Y-194.000I0.000J9.250
G1Y-161.682
G1Y-152.682
G1Y-143.682
G1Y-67.777
G1Y-58.777
G1Y-49.777
G1Y-16.000
G2X-89.000Y-6.750I9.250J0.000
G1X-56.682
G1X-47.682
G1X-38.682
G1X37.222
G1Z-3.350F400.0
G1X46.222F1200.0
G1X55.222
G1X89.000
G2X98.250Y-16.000I0.000J-9.250
G1Y-48.317
G1Y-57.317
G1Y-66.317
G1Y-142.222
G1Y-151.222
G1Y-160.222
G1Y-194.000
G2X89.000Y-203.250I-9.250J0.000
G1X56.681
G1X47.681
G1X38.681
G1X-37.223
G1X-46.223
G1X-55.223
G1X-89.000
G2X-98.250Y-194.000I0.000J9.250
G1Y-161.682
G1Y-152.682
G1Y-143.682
G1Y-67.777
G1Y-58.777
G1Y-49.777
G1Y-16.000
G2X-89.000Y-6.750I9.250J0.000
G1X-56.682
G1X-47.682
G1X-38.682
G1X37.222
G1Z-5.025F400.0
G1X46.222Z-3.700F1200.0
G1X55.222Z-5.025
G1X89.000
G2X98.250Y-16.000I0.000J-9.250
G1Y-48.317
G1Y-57.317Z-3.700
G1Y-66.317Z-5.025
G1Y-142.222
G1Y-151.222Z-3.700
G1Y-160.222Z-5.025
G1Y-194.000
G2X89.000Y-203.250I-9.250J0.000
G1X56.681
G1X47.681Z-3.700
G1X38.681Z-5.025
G1X-37.223
G1X-46.223Z-3.700
G1X-55.223Z-5.025
G1X-89.000
G2X-98.250Y-194.000I0.000J9.250
G1Y-161.682
G1Y-152.682Z-3.700
G1Y-143.682Z-5.025
G1Y-67.777
G1Y-58.777Z-3.700
G1Y-49.777Z-5.025
G1Y-16.000
G2X-89.000Y-6.750I9.250J0.000
G1X-56.682
G1X-47.682Z-3.700
G1X-38.682Z-5.025
G1X37.222
G1Z-6.700F400.0
G1X46.222Z-3.700F1200.0
G1X55.222Z-6.700
G1X89.000
G2X98.250Y-16.000I0.000J-9.250
G1Y-48.317
G1Y-57.317Z-3.700
G1Y-66.317Z-6.700
G1Y-142.222
G1Y-151.222Z-3.700
G1Y-160.222Z-6.700
G1Y-194.000
G2X89.000Y-203.250I-9.250J0.000
G1X56.681
G1X47.681Z-3.700
G1X38.681Z-6.700
G1X-37.223
G1X-46.223Z-3.700
G1X-55.223Z-6.700
G1X-89.000
G2X-98.250Y-194.000I0.000J9.250
G1Y-161.682
G1Y-152.682Z-3.700
G1Y-143.682Z-6.700
G1Y-67.777
G1Y-58.777Z-3.700
G1Y-49.777Z-6.700
G1Y-16.000
G2X-89.000Y-6.750I9.250J0.000
G1X-56.682
G1X-47.682Z-3.700
G1X-38.682Z-6.700
G1X37.222
G0Z5.080
G0X37.222Y6.750
G1Z-1.675F400.0
G1X-38.682F1200.0
G1X-47.682
G1X-56.682
G1X-89.000
G2X-98.250Y16.000I0.000J9.250
G1Y49.777
G1Y58.777
G1Y67.777
G1Y143.681
G1Y152.681
G1Y161.681
G1Y194.000
G2X-89.000Y203.250I9.250J0.000
G1X-55.222
G1X-46.222
G1X-37.222
G1X38.681
G1X47.681
G1X56.681
G1X89.000
G2X98.250Y194.000I0.000J-9.250
G1Y160.222
G1Y151.222
G1Y142.222
G1Y66.318
G1Y57.318
G1Y48.318
G1Y16.000
G2X89.000Y6.750I-9.250J0.000
G1X55.222
G1X46.222
G1X37.222
G1Z-3.350F400.0
G1X-38.682F1200.0
G1X-47.682
G1X-56.682
G1X-89.000
G2X-98.250Y16.000I0.000J9.250
G1Y49.777
G1Y58.777
G1Y67.777
G1Y143.681
G1Y152.681
G1Y161.681
G1Y194.000
G2X-89.000Y203.250I9.250J0.000
G1X-55.222
G1X-46.222
G1X-37.222
G1X38.681
G1X47.681
G1X56.681
G1X89.000
G2X98.250Y194.000I0.000J-9.250
G1Y160.222
G1Y151.222
G1Y142.222
G1Y66.318
G1Y57.318
G1Y48.318
G1Y16.000
G2X89.000Y6.750I-9.250J0.000
G1X55.222
G1X46.222
G1X37.222
G1Z-5.025F400.0
G1X-38.682F1200.0
G1X-47.682Z-3.700
G1X-56.682Z-5.025
G1X-89.000
G2X-98.250Y16.000I0.000J9.250
G1Y49.777
G1Y58.777Z-3.700
G1Y67.777Z-5.025
G1Y143.681
G1Y152.681Z-3.700
G1Y161.681Z-5.025
G1Y194.000
G2X-89.000Y203.250I9.250J0.000
G1X-55.222
G1X-46.222Z-3.700
G1X-37.222Z-5.025
G1X38.681
G1X47.681Z-3.700
G1X56.681Z-5.025
G1X89.000
G2X98.250Y194.000I0.000J-9.250
G1Y160.222
G1Y151.222Z-3.700
G1Y142.222Z-5.025
G1Y66.318
G1Y57.318Z-3.700
G1Y48.318Z-5.025
G1Y16.000
G2X89.000Y6.750I-9.250J0.000
G1X55.222
G1X46.222Z-3.700
G1X37.222Z-5.025
G1Z-6.700F400.0
G1X-38.682F1200.0
G1X-47.682Z-3.700
G1X-56.682Z-6.700
G1X-89.000
G2X-98.250Y16.000I0.000J9.250
G1Y49.777
G1Y58.777Z-3.700
G1Y67.777Z-6.700
G1Y143.681
G1Y152.681Z-3.700
G1Y161.681Z-6.700
G1Y194.000
G2X-89.000Y203.250I9.250J0.000
G1X-55.222
G1X-46.222Z-3.700
G1X-37.222Z-6.700
G1X38.681
G1X47.681Z-3.700
G1X56.681Z-6.700
G1X89.000
G2X98.250Y194.000I0.000J-9.250
G1Y160.222
G1Y151.222Z-3.700
G1Y142.222Z-6.700
G1Y66.318
G1Y57.318Z-3.700
G1Y48.318Z-6.700
G1Y16.000
G2X89.000Y6.750I-9.250J0.000
G1X55.222
G1X46.222Z-3.700
G1X37.222Z-6.700
G0Z5.080
M5
G0Z20.320
G0X0.000Y0.000
M2
