(VECTRIC POST REVISION)
(2410E23C85915A17A0D6BB4BFA509A68)
T1
G17
G21
G90
G0Z20.320
G0X0.000Y0.000
S14000M3
G0X-2.590Y-102.590
G0Z5.080
G1Z-0.550F300.0
G1X2.590F950.0
G1Y104.590
G1X-2.590
G1Y-102.590
G1X-9.030Y-109.030
G1X9.030
G1Y111.030
G1X-9.030
G1Y-109.030
G1X-15.470Y-115.470
G1X15.470
G1Y117.470
G1X-15.470
G1Y-115.470
G1X-21.910Y-121.910
G1X21.910
G1Y123.910
G1X-21.910
G1Y-121.910
G1X-28.350Y-128.350
G1X28.350
G1Y130.350
G1X-28.350
G1Y-128.350
G1X-34.790Y-134.790
G1X34.790
G1Y136.790
G1X-34.790
G1Y-134.790
G1X-41.230Y-141.230
G1X41.230
G1Y143.230
G1X-41.230
G1Y-141.230
G1X-47.670Y-147.670
G1X47.670
G1Y149.670
G1X-47.670
G1Y-147.670
G1X-54.110Y-154.110
G1X54.110
G1Y156.110
G1X-54.110
G1Y-154.110
G1X-60.550Y-160.550
G1X60.550
G1Y162.550
G1X-60.550
G1Y-160.550
G1X-66.990Y-166.990
G1X66.990
G1Y168.990
G1X-66.990
G1Y-166.990
G1X-73.430Y-173.430
G1X73.430
G1Y175.430
G1X-73.430
G1Y-173.430
G1X-79.870Y-179.870
G1X79.870
G1Y181.870
G1X-79.870
G1Y-179.870
G1X-86.310Y-186.310
G1X86.310
G1Y188.310
G1X-86.310
G1Y-186.310
G1X-92.750Y-192.750
G1X92.750
G1Y194.750
G1X-92.750
G1Y-192.750
G1X-99.190Y-199.190
G1X99.190
G1Y201.190
G1X-99.190
G1Y-199.190
G1X-105.630Y-205.630
G1X105.630
G1Y207.630
G1X-105.630
G1Y-205.630
G1X-112.070Y-212.070
G1X112.070
G1Y214.070
G1X-112.070
G1Y-212.070
G1X-118.510Y-218.510
G1X118.510
G1Y220.510
G1X-118.510
G1Y-218.510
G1X-124.950Y-224.950
G1X124.950
G1Y226.950
G1X-124.950
G1Y-224.950
G1X-118.510Y-218.510
G1X-112.070Y-212.070
G1X-105.630Y-205.630
G1X-99.190Y-199.190
G1X-92.750Y-192.750
G1X-86.310Y-186.310
G1X-79.870Y-179.870
G1X-73.430Y-173.430
G1X-66.990Y-166.990
G1X-60.550Y-160.550
G1X-54.110Y-154.110
G1X-47.670Y-147.670
G1X-41.230Y-141.230
G1X-34.790Y-134.790
G1X-28.350Y-128.350
G1X-21.910Y-121.910
G1X-15.470Y-115.470
G1X-9.030Y-109.030
G1X-2.590Y-102.590
G1Z-1.100F300.0
G1X2.590F950.0
G1Y104.590
G1X-2.590
G1Y-102.590
G1X-9.030Y-109.030
G1X9.030
G1Y111.030
G1X-9.030
G1Y-109.030
G1X-15.470Y-115.470
G1X15.470
G1Y117.470
G1X-15.470
G1Y-115.470
G1X-21.910Y-121.910
G1X21.910
G1Y123.910
G1X-21.910
G1Y-121.910
G1X-28.350Y-128.350
G1X28.350
G1Y130.350
G1X-28.350
G1Y-128.350
G1X-34.790Y-134.790
G1X34.790
G1Y136.790
G1X-34.790
G1Y-134.790
G1X-41.230Y-141.230
G1X41.230
G1Y143.230
G1X-41.230
G1Y-141.230
G1X-47.670Y-147.670
G1X47.670
G1Y149.670
G1X-47.670
G1Y-147.670
G1X-54.110Y-154.110
G1X54.110
G1Y156.110
G1X-54.110
G1Y-154.110
G1X-60.550Y-160.550
G1X60.550
G1Y162.550
G1X-60.550
G1Y-160.550
G1X-66.990Y-166.990
G1X66.990
G1Y168.990
G1X-66.990
G1Y-166.990
G1X-73.430Y-173.430
G1X73.430
G1Y175.430
G1X-73.430
G1Y-173.430
G1X-79.870Y-179.870
G1X79.870
G1Y181.870
G1X-79.870
G1Y-179.870
G1X-86.310Y-186.310
G1X86.310
G1Y188.310
G1X-86.310
G1Y-186.310
G1X-92.750Y-192.750
G1X92.750
G1Y194.750
G1X-92.750
G1Y-192.750
G1X-99.190Y-199.190
G1X99.190
G1Y201.190
G1X-99.190
G1Y-199.190
G1X-105.630Y-205.630
G1X105.630
G1Y207.630
G1X-105.630
G1Y-205.630
G1X-112.070Y-212.070
G1X112.070
G1Y214.070
G1X-112.070
G1Y-212.070
G1X-118.510Y-218.510
G1X118.510
G1Y220.510
G1X-118.510
G1Y-218.510
G1X-124.950Y-224.950
G1X124.950
G1Y226.950
G1X-124.950
G1Y-224.950
G1X-118.510Y-218.510
G1X-112.070Y-212.070
G1X-105.630Y-205.630
G1X-99.190Y-199.190
G1X-92.750Y-192.750
G1X-86.310Y-186.310
G1X-79.870Y-179.870
G1X-73.430Y-173.430
G1X-66.990Y-166.990
G1X-60.550Y-160.550
G1X-54.110Y-154.110
G1X-47.670Y-147.670
G1X-41.230Y-141.230
G1X-34.790Y-134.790
G1X-28.350Y-128.350
G1X-21.910Y-121.910
G1X-15.470Y-115.470
G1X-9.030Y-109.030
G1X-2.590Y-102.590
G1Z-1.650F300.0
G1X2.590F950.0
G1Y104.590
G1X-2.590
G1Y-102.590
G1X-9.030Y-109.030
G1X9.030
G1Y111.030
G1X-9.030
G1Y-109.030
G1X-15.470Y-115.470
G1X15.470
G1Y117.470
G1X-15.470
G1Y-115.470
G1X-21.910Y-121.910
G1X21.910
G1Y123.910
G1X-21.910
G1Y-121.910
G1X-28.350Y-128.350
G1X28.350
G1Y130.350
G1X-28.350
G1Y-128.350
G1X-34.790Y-134.790
G1X34.790
G1Y136.790
G1X-34.790
G1Y-134.790
G1X-41.230Y-141.230
G1X41.230
G1Y143.230
G1X-41.230
G1Y-141.230
G1X-47.670Y-147.670
G1X47.670
G1Y149.670
G1X-47.670
G1Y-147.670
G1X-54.110Y-154.110
G1X54.110
G1Y156.110
G1X-54.110
G1Y-154.110
G1X-60.550Y-160.550
G1X60.550
G1Y162.550
G1X-60.550
G1Y-160.550
G1X-66.990Y-166.990
G1X66.990
G1Y168.990
G1X-66.990
G1Y-166.990
G1X-73.430Y-173.430
G1X73.430
G1Y175.430
G1X-73.430
G1Y-173.430
G1X-79.870Y-179.870
G1X79.870
G1Y181.870
G1X-79.870
G1Y-179.870
G1X-86.310Y-186.310
G1X86.310
G1Y188.310
G1X-86.310
G1Y-186.310
G1X-92.750Y-192.750
G1X92.750
G1Y194.750
G1X-92.750
G1Y-192.750
G1X-99.190Y-199.190
G1X99.190
G1Y201.190
G1X-99.190
G1Y-199.190
G1X-105.630Y-205.630
G1X105.630
G1Y207.630
G1X-105.630
G1Y-205.630
G1X-112.070Y-212.070
G1X112.070
G1Y214.070
G1X-112.070
G1Y-212.070
G1X-118.510Y-218.510
G1X118.510
G1Y220.510
G1X-118.510
G1Y-218.510
G1X-124.950Y-224.950
G1X124.950
G1Y226.950
G1X-124.950
G1Y-224.950
G0Z5.080
M5
G0Z20.320
G0X0.000Y0.000
M2
